(Exported by REDACTED)
(Post Processor: REDACTED)
(Output Time:2019-04-14 14:45:14.565077)
(begin preamble)
G17 G90
G21
(begin operation: T1: 1/4" Endmill)
(Path: T1: 1/4" Endmill)
(T1: 1/4" Endmill)
(begin toolchange)
; M6 T1
M3 S1500.0000
(finish operation: T1: 1/4" Endmill)
(begin operation: Contour)
(Path: Contour)
(Contour)
(Compensated Tool Path. Diameter: 6.35)
G0 Z17.7800
G0 X78.4451 Y8.5951
G0 Z15.7480
G1 X78.4451 Y8.5951 Z6.3500 F12.70
G2 X79.3750 Y6.3500 Z6.3500 I-2.2451 J-2.2451 F50.80
G1 X79.3750 Y-6.3500 Z6.3500 F50.80
G2 X76.2000 Y-9.5250 Z6.3500 I-3.1750 J0.0000 F50.80
G1 X-76.2000 Y-9.5250 Z6.3500 F50.80
G2 X-79.3750 Y-6.3500 Z6.3500 I0.0000 J3.1750 F50.80
G1 X-79.3750 Y6.3500 Z6.3500 F50.80
G2 X-76.2000 Y9.5250 Z6.3500 I3.1750 J-0.0000 F50.80
G1 X76.2000 Y9.5250 Z6.3500 F50.80
G2 X78.4451 Y8.5951 Z6.3500 I-0.0000 J-3.1750 F50.80
G1 X78.4451 Y8.5951 Z0.0000 F12.70
G2 X79.3750 Y6.3500 Z0.0000 I-2.2451 J-2.2451 F50.80
G1 X79.3750 Y-6.3500 Z0.0000 F50.80
G2 X76.2000 Y-9.5250 Z0.0000 I-3.1750 J0.0000 F50.80
G1 X-76.2000 Y-9.5250 Z0.0000 F50.80
G2 X-79.3750 Y-6.3500 Z0.0000 I0.0000 J3.1750 F50.80
G1 X-79.3750 Y6.3500 Z0.0000 F50.80
G2 X-76.2000 Y9.5250 Z0.0000 I3.1750 J-0.0000 F50.80
G1 X76.2000 Y9.5250 Z0.0000 F50.80
G2 X78.4451 Y8.5951 Z0.0000 I-0.0000 J-3.1750 F50.80
G0 Z17.7800
(finish operation: Contour)
(begin operation: T2: Engraving bit)
(Path: T2: Engraving bit)
(T2: Engraving bit)
(begin toolchange)
; M6 T2
M3 S1500.0000
(finish operation: T2: Engraving bit)
(begin operation: Pocket_Shape)
(Path: Pocket_Shape)
(Pocket_Shape)
G0 Z17.7800
G0 X-60.4366 Y1.6326
G0 Z15.7480
G1 X-60.4366 Y1.6326 Z12.6937 F12.70
G1 X-60.4281 Y1.6024 Z12.6937 F25.40
G1 X-60.0690 Y1.6622 Z12.6937 F25.40
G3 X-60.1701 Y1.8990 Z12.6937 I-0.9064 J-0.2473 F25.40
G1 X-60.4366 Y1.6326 Z12.6937 F25.40
G3 X-60.5530 Y1.8753 Z12.6937 I-0.7559 J-0.2134 F25.40
G1 X-60.3218 Y2.1066 Z12.6937 F25.40
G3 X-60.5285 Y2.2591 Z12.6937 I-0.4722 J-0.4237 F25.40
G1 X-60.7219 Y2.0656 Z12.6937 F25.40
G3 X-60.9514 Y2.1954 Z12.6937 I-0.4596 J-0.5448 F25.40
G1 X-60.7822 Y2.3646 Z12.6937 F25.40
G3 X-61.0795 Y2.4264 Z12.6937 I-0.3580 J-0.9759 F25.40
G1 X-61.2361 Y2.2698 Z12.6937 F25.40
G3 X-61.5851 Y2.2801 Z12.6937 I-0.2176 J-1.4598 F25.40
G1 X-61.4158 Y2.4493 Z12.6937 F25.40
G3 X-61.7890 Y2.4354 Z12.6937 I-0.1336 J-1.4219 F25.40
G1 X-62.0304 Y2.1940 Z12.6937 F25.40
G3 X-62.4903 Y1.7341 Z12.6937 I0.2147 J-0.6746 F25.40
G1 X-62.8897 Y1.3347 Z12.6937 F25.40
G2 X-62.8464 Y1.7372 Z12.6937 I0.7019 J0.1281 F25.40
G1 X-62.2546 Y2.3290 Z12.6937 F25.40
G3 X-62.8464 Y1.7372 Z12.6937 I0.2390 J-0.8309 F25.40
G0 X-62.8464 Y1.7372 Z17.7800
G0 X-62.8897 Y1.3347 Z17.7800
G1 X-62.8897 Y1.3347 Z12.6937 F12.70
G1 X-62.4903 Y1.7341 Z12.6937 F25.40
G3 X-62.5286 Y1.3366 Z12.6937 I0.8208 J-0.2798 F25.40
G1 X-62.8284 Y1.0368 Z12.6937 F25.40
G3 X-62.6921 Y0.8139 Z12.6937 I0.6037 J0.2159 F25.40
G1 X-62.4433 Y1.0627 Z12.6937 F25.40
G3 X-62.2676 Y0.8791 Z12.6937 I0.4902 J0.2932 F25.40
G1 X-62.4979 Y0.6489 Z12.6937 F25.40
G1 X-62.2614 Y0.5261 Z12.6937 F25.40
G1 X-62.0370 Y0.7506 Z12.6937 F25.40
G3 X-61.7704 Y0.6580 Z12.6937 I0.5868 J1.2586 F25.40
G1 X-61.9961 Y0.4322 Z12.6937 F25.40
G3 X-61.7156 Y0.3536 Z12.6937 I0.6972 J1.9458 F25.40
G1 X-61.4845 Y0.5846 Z12.6937 F25.40
G2 X-61.1989 Y0.5110 Z12.6937 I-14.8066 J-58.0327 F25.40
G1 X-61.4297 Y0.2802 Z12.6937 F25.40
G2 X-61.1437 Y0.2070 Z12.6937 I-0.5382 J-2.6985 F25.40
G1 X-60.9178 Y0.4329 Z12.6937 F25.40
G1 X-60.6488 Y0.3427 Z12.6937 F25.40
G1 X-60.8767 Y0.1148 Z12.6937 F25.40
G2 X-60.6421 Y-0.0098 Z12.6937 I-0.2798 J-0.8095 F25.40
G1 X-60.4103 Y0.2219 Z12.6937 F25.40
G2 X-60.2017 Y0.0714 Z12.6937 I-0.2482 J-0.5637 F25.40
G1 X-60.4517 Y-0.1787 Z12.6937 F25.40
G2 X-60.3224 Y-0.4086 Z12.6937 I-0.3861 J-0.3685 F25.40
G1 X-60.0438 Y-0.1299 Z12.6937 F25.40
G2 X-59.9495 Y-0.3949 Z12.6937 I-0.4561 J-0.3114 F25.40
G1 X-60.2969 Y-0.7422 Z12.6937 F25.40
G0 X-60.2969 Y-0.7422 Z17.7800
G0 X-60.2870 Y-1.4508 Z17.7800
G1 X-60.2870 Y-1.4508 Z12.6937 F12.70
G3 X-59.9315 Y-0.7360 Z12.6937 I-0.5923 J0.7405 F25.40
G1 X-60.9140 Y-1.7186 Z12.6937 F25.40
G2 X-61.3227 Y-1.7681 Z12.6937 I-0.3817 J1.4395 F25.40
G1 X-60.9699 Y-1.4153 Z12.6937 F25.40
G2 X-61.3812 Y-1.4673 Z12.6937 I-0.4204 J1.6707 F25.40
G1 X-61.6823 Y-1.7685 Z12.6937 F25.40
G2 X-62.0058 Y-1.7327 Z12.6937 I-0.0129 J1.3654 F25.40
G1 X-61.7324 Y-1.4593 Z12.6937 F25.40
G2 X-62.0352 Y-1.4029 Z12.6937 I0.0496 J1.1065 F25.40
G1 X-62.2930 Y-1.6607 Z12.6937 F25.40
G2 X-62.5416 Y-1.5501 Z12.6937 I0.1795 J0.7376 F25.40
G1 X-62.2896 Y-1.2981 Z12.6937 F25.40
G2 X-62.4995 Y-1.1488 Z12.6937 I0.2973 J0.6401 F25.40
G1 X-62.7498 Y-1.3991 Z12.6937 F25.40
G2 X-62.9175 Y-1.2076 Z12.6937 I0.3859 J0.5072 F25.40
G1 X-62.6515 Y-0.9415 Z12.6937 F25.40
G2 X-62.7187 Y-0.7899 Z12.6937 I0.4958 J0.3106 F25.40
G3 X-63.0433 Y-0.9741 Z12.6937 I-0.0255 J-0.3330 F25.40
G1 X-63.0775 Y-0.8598 Z12.6937 F25.40
G1 X-62.8930 Y-0.8239 Z12.6937 F25.40
G0 Z17.7800
G0 X-57.6049 Y1.5966
G0 Z15.7480
G1 X-57.6049 Y1.5966 Z12.6937 F12.70
G1 X-57.8519 Y1.3496 Z12.6937 F25.40
G2 X-57.3972 Y1.4451 Z12.6937 I0.4527 J-1.0254 F25.40
G1 X-57.2454 Y1.5969 Z12.6937 F25.40
G2 X-56.9302 Y1.5529 Z12.6937 I0.0183 J-1.0195 F25.40
G1 X-57.0839 Y1.3992 Z12.6937 F25.40
G2 X-56.8340 Y1.2898 Z12.6937 I-0.1662 J-0.7200 F25.40
G1 X-56.6757 Y1.4482 Z12.6937 F25.40
G2 X-56.4608 Y1.3038 Z12.6937 I-0.1756 J-0.4935 F25.40
G1 X-56.6478 Y1.1169 Z12.6937 F25.40
G2 X-56.5059 Y0.8995 Z12.6937 I-0.4978 J-0.4799 F25.40
G1 X-56.2874 Y1.1180 Z12.6937 F25.40
G1 X-56.1535 Y0.8927 Z12.6937 F25.40
G1 X-56.4058 Y0.6404 Z12.6937 F25.40
G2 X-56.3456 Y0.3415 Z12.6937 I-1.0174 J-0.3606 F25.40
G1 X-56.0619 Y0.6251 Z12.6937 F25.40
G2 X-56.0041 Y0.3237 Z12.6937 I-0.9227 J-0.3333 F25.40
G1 X-56.4242 Y-0.0963 Z12.6937 F25.40
G1 X-56.0649 Y-0.0963 Z12.6937 F25.40
G1 X-55.9770 Y-0.0084 Z12.6937 F25.40
G1 X-55.9725 Y-0.0963 Z12.6937 F25.40
G1 X-56.0649 Y-0.0963 Z12.6937 F25.40
G0 X-56.0649 Y-0.0963 Z17.7800
G0 X-56.6170 Y0.0701 Z17.7800
G1 X-56.6170 Y0.0701 Z12.6937 F12.70
G1 X-56.7834 Y-0.0963 Z12.6937 F25.40
G1 X-57.1426 Y-0.0963 Z12.6937 F25.40
G1 X-56.9762 Y0.0701 Z12.6937 F25.40
G1 X-57.3354 Y0.0701 Z12.6937 F25.40
G1 X-57.5018 Y-0.0963 Z12.6937 F25.40
G1 X-57.8610 Y-0.0963 Z12.6937 F25.40
G1 X-57.6946 Y0.0701 Z12.6937 F25.40
G1 X-58.0538 Y0.0701 Z12.6937 F25.40
G1 X-58.2202 Y-0.0963 Z12.6937 F25.40
G3 X-58.4977 Y-0.1799 Z12.6937 I-0.0952 J-0.1864 F25.40
G3 X-58.4969 Y-0.3731 Z12.6937 I0.4684 J-0.0947 F25.40
G1 X-58.8000 Y-0.6762 Z12.6937 F25.40
G2 X-58.8513 Y-0.3682 Z12.6937 I0.9757 J0.3206 F25.40
G1 X-58.4058 Y0.0773 Z12.6937 F25.40
G2 X-58.4823 Y0.3600 Z12.6937 I0.0801 J0.1734 F25.40
G1 X-58.8683 Y-0.0260 Z12.6937 F25.40
G1 X-58.8416 Y0.3599 Z12.6937 F25.40
G1 X-58.3566 Y0.8449 Z12.6937 F25.40
G2 X-57.8519 Y1.3496 Z12.6937 I0.8573 J-0.3526 F25.40
G1 X-57.6049 Y1.5966 Z12.6937 F25.40
G3 X-58.0855 Y1.4752 Z12.6937 I0.0211 J-1.0954 F25.40
G1 X-58.6867 Y0.8740 Z12.6937 F25.40
G2 X-58.0855 Y1.4752 Z12.6937 I0.9987 J-0.3975 F25.40
G0 X-58.0855 Y1.4752 Z17.7800
G0 X-58.8000 Y-0.6762 Z17.7800
G1 X-58.8000 Y-0.6762 Z12.6937 F12.70
G1 X-58.4969 Y-0.3731 Z12.6937 F25.40
G3 X-58.4542 Y-0.6896 Z12.6937 I1.2730 J0.0106 F25.40
G1 X-58.7143 Y-0.9497 Z12.6937 F25.40
G3 X-58.5936 Y-1.1882 Z12.6937 I0.6193 J0.1637 F25.40
G1 X-58.3680 Y-0.9625 Z12.6937 F25.40
G3 X-58.2399 Y-1.1937 Z12.6937 I0.7351 J0.2563 F25.40
G1 X-58.4363 Y-1.3901 Z12.6937 F25.40
G3 X-58.2396 Y-1.5526 Z12.6937 I0.4429 J0.3355 F25.40
G1 X-58.0672 Y-1.3801 Z12.6937 F25.40
G3 X-57.8453 Y-1.5175 Z12.6937 I0.4621 J0.4987 F25.40
G1 X-58.0023 Y-1.6745 Z12.6937 F25.40
G3 X-57.7193 Y-1.7507 Z12.6937 I0.3449 J0.7168 F25.40
G1 X-57.5633 Y-1.5947 Z12.6937 F25.40
G3 X-57.2105 Y-1.6011 Z12.6937 I0.1969 J1.1213 F25.40
G1 X-57.3871 Y-1.7777 Z12.6937 F25.40
G3 X-56.9892 Y-1.7390 Z12.6937 I0.0690 J1.3562 F25.40
G1 X-56.6063 Y-1.3562 Z12.6937 F25.40
G0 X-56.6063 Y-1.3562 Z17.7800
G0 X-56.3055 Y-1.4145 Z17.7800
G1 X-56.3055 Y-1.4145 Z12.6937 F12.70
G3 X-56.1127 Y-1.1530 Z12.6937 I-0.4893 J0.5625 F25.40
G1 X-56.3392 Y-1.0890 Z12.6937 F25.40
G3 X-56.4805 Y-1.2304 Z12.6937 I0.0183 J-0.1597 F25.40
G1 X-56.3392 Y-1.0890 Z12.6937 F25.40
G0 Z17.7800
G0 X-52.0648 Y0.9505
G0 Z15.7480
G1 X-52.0648 Y0.9505 Z12.6937 F12.70
G2 X-51.9947 Y0.7789 Z12.6937 I-0.4376 J-0.2790 F25.40
G1 X-52.2555 Y0.7599 Z12.6937 F25.40
G1 X-52.0648 Y0.9505 Z12.6937 F25.40
G3 X-52.2048 Y1.1697 Z12.6937 I-0.6976 J-0.2912 F25.40
G1 X-52.4310 Y0.9436 Z12.6937 F25.40
G3 X-52.5765 Y1.1573 Z12.6937 I-0.6416 J-0.2804 F25.40
G1 X-52.3904 Y1.3434 Z12.6937 F25.40
G3 X-52.6186 Y1.4744 Z12.6937 I-0.4774 J-0.5676 F25.40
G1 X-52.7733 Y1.3197 Z12.6937 F25.40
G3 X-53.0381 Y1.4141 Z12.6937 I-0.3881 J-0.6707 F25.40
G1 X-52.8887 Y1.5635 Z12.6937 F25.40
G3 X-53.2063 Y1.6051 Z12.6937 I-0.2882 J-0.9666 F25.40
G2 X-53.5937 Y1.4217 Z12.6937 I-0.3032 J0.1396 F25.40
G3 X-53.8174 Y1.3532 Z12.6937 I0.1348 J-0.8403 F25.40
G1 X-53.5796 Y1.5911 Z12.6937 F25.40
G0 X-53.5796 Y1.5911 Z17.7800
G0 X-54.0969 Y1.4330 Z17.7800
G1 X-54.0969 Y1.4330 Z12.6937 F12.70
G1 X-54.5864 Y0.9434 Z12.6937 F25.40
G2 X-54.0969 Y1.4330 Z12.6937 I0.9745 J-0.4849 F25.40
G2 X-53.5796 Y1.5911 Z12.6937 I0.6929 J-1.3420 F25.40
G1 X-53.8174 Y1.3532 Z12.6937 F25.40
G3 X-54.2886 Y0.8820 Z12.6937 I0.3218 J-0.7930 F25.40
G1 X-54.7839 Y0.3863 Z12.6937 F25.40
G1 X-54.8119 Y-0.0005 Z12.6937 F25.40
G1 X-54.4195 Y0.3919 Z12.6937 F25.40
G3 X-54.4475 Y0.0047 Z12.6937 I2.0438 J-0.3426 F25.40
G1 X-54.8021 Y-0.3499 Z12.6937 F25.40
G3 X-54.7549 Y-0.6619 Z12.6937 I1.2352 J0.0271 F25.40
G1 X-54.4390 Y-0.3460 Z12.6937 F25.40
G3 X-54.4002 Y-0.6664 Z12.6937 I1.8001 J0.0552 F25.40
G1 X-54.6717 Y-0.9379 Z12.6937 F25.40
G3 X-54.5517 Y-1.1771 Z12.6937 I0.6329 J0.1679 F25.40
G1 X-54.3250 Y-0.9504 Z12.6937 F25.40
G3 X-54.2052 Y-1.1898 Z12.6937 I1.0791 J0.3902 F25.40
G1 X-54.3934 Y-1.3780 Z12.6937 F25.40
G3 X-54.1960 Y-1.5399 Z12.6937 I0.4335 J0.3271 F25.40
G1 X-54.0357 Y-1.3795 Z12.6937 F25.40
G3 X-53.8138 Y-1.5168 Z12.6937 I0.3902 J0.3827 F25.40
G1 X-53.9632 Y-1.6663 Z12.6937 F25.40
G3 X-53.6829 Y-1.7452 Z12.6937 I0.4429 J1.0357 F25.40
G1 X-53.5307 Y-1.5929 Z12.6937 F25.40
G3 X-53.1812 Y-1.6027 Z12.6937 I0.2066 J1.1357 F25.40
G1 X-53.3516 Y-1.7731 Z12.6937 F25.40
G3 X-52.9659 Y-1.7466 Z12.6937 I0.1188 J1.0900 F25.40
G1 X-52.1484 Y-0.9290 Z12.6937 F25.40
G1 X-51.9831 Y-0.9389 Z12.6937 F25.40
G2 X-52.1923 Y-1.3322 Z12.6937 I-0.7645 J0.1544 F25.40
G0 Z17.7800
G0 X-49.5688 Y2.4399
G0 Z15.7480
G1 X-49.5688 Y2.4399 Z12.6937 F12.70
G1 X-49.8629 Y2.1459 Z12.6937 F25.40
G2 X-49.5182 Y2.1313 Z12.6937 I0.0575 J-2.7264 F25.40
G1 X-49.2385 Y2.4110 Z12.6937 F25.40
G1 X-48.9455 Y2.3448 Z12.6937 F25.40
G1 X-49.2058 Y2.0845 Z12.6937 F25.40
G2 X-48.9332 Y1.9979 Z12.6937 I-0.0788 J-0.7200 F25.40
G1 X-48.6786 Y2.2525 Z12.6937 F25.40
G2 X-48.4503 Y2.1216 Z12.6937 I-0.4285 J-1.0114 F25.40
G1 X-48.7006 Y1.8713 Z12.6937 F25.40
G2 X-48.5070 Y1.7057 Z12.6937 I-0.2880 J-0.5327 F25.40
G1 X-48.2525 Y1.9602 Z12.6937 F25.40
G2 X-48.0903 Y1.7632 Z12.6937 I-0.6995 J-0.7408 F25.40
G1 X-48.3557 Y1.4978 Z12.6937 F25.40
G2 X-48.2459 Y1.2484 Z12.6937 I-0.5483 J-0.3903 F25.40
G1 X-47.9577 Y1.5365 Z12.6937 F25.40
G2 X-47.8581 Y1.2770 Z12.6937 I-0.9413 J-0.5102 F25.40
G1 X-48.1714 Y0.9636 Z12.6937 F25.40
G2 X-48.1303 Y0.6456 Z12.6937 I-1.1236 J-0.3072 F25.40
G1 X-47.7893 Y0.9865 Z12.6937 F25.40
G2 X-47.7574 Y0.6592 Z12.6937 I-1.3733 J-0.2991 F25.40
G1 X-48.1197 Y0.2969 Z12.6937 F25.40
G2 X-48.1466 Y-0.0891 Z12.6937 I-1.5944 J-0.0831 F25.40
G1 X-47.7433 Y0.3141 Z12.6937 F25.40
G1 X-47.7672 Y-0.0690 Z12.6937 F25.40
G1 X-48.2595 Y-0.5613 Z12.6937 F25.40
G0 X-48.2595 Y-0.5613 Z17.7800
G0 X-48.3420 Y-1.3622 Z17.7800
G1 X-48.3420 Y-1.3622 Z12.6937 F12.70
G3 X-47.8540 Y-0.5150 Z12.6937 I-1.1960 J1.2530 F25.40
G1 X-49.0628 Y-1.7238 Z12.6937 F25.40
G2 X-49.4680 Y-1.7697 Z12.6937 I-0.3639 J1.3985 F25.40
G1 X-49.0905 Y-1.3923 Z12.6937 F25.40
G2 X-49.5215 Y-1.4641 Z12.6937 I-0.4003 J1.0726 F25.40
G1 X-49.8354 Y-1.7780 Z12.6937 F25.40
G1 X-50.1946 Y-1.7780 Z12.6937 F25.40
G1 X-49.8881 Y-1.4714 Z12.6937 F25.40
G2 X-50.1961 Y-1.4618 Z12.6937 I-0.1297 J0.7791 F25.40
G1 X-50.2210 Y-1.4451 Z12.6937 F25.40
G1 X-50.5538 Y-1.7780 Z12.6937 F25.40
G1 X-50.6489 Y-1.7780 Z12.6937 F25.40
G1 X-50.6489 Y-1.5139 Z12.6937 F25.40
G1 X-50.2745 Y-1.1394 Z12.6937 F25.40
G1 X-50.2745 Y-0.7802 Z12.6937 F25.40
G1 X-50.6489 Y-1.1547 Z12.6937 F25.40
G1 X-50.6489 Y-0.7954 Z12.6937 F25.40
G1 X-50.2745 Y-0.4210 Z12.6937 F25.40
G1 X-50.2745 Y-0.0618 Z12.6937 F25.40
G1 X-50.6489 Y-0.4362 Z12.6937 F25.40
G1 X-50.6489 Y-0.0770 Z12.6937 F25.40
G1 X-50.2745 Y0.2974 Z12.6937 F25.40
G1 X-50.2745 Y0.6566 Z12.6937 F25.40
G1 X-50.6489 Y0.2822 Z12.6937 F25.40
G1 X-50.6489 Y0.6414 Z12.6937 F25.40
G1 X-50.2745 Y1.0158 Z12.6937 F25.40
G1 X-50.2745 Y1.3750 Z12.6937 F25.40
G1 X-50.6489 Y1.0006 Z12.6937 F25.40
G1 X-50.6489 Y1.3598 Z12.6937 F25.40
G1 X-50.2745 Y1.7342 Z12.6937 F25.40
G2 X-50.2648 Y2.0675 Z12.6937 I0.8424 J0.1423 F25.40
G2 X-50.1475 Y2.1459 Z12.6937 I0.1173 J-0.0486 F25.40
G1 X-49.8629 Y2.1459 Z12.6937 F25.40
G1 X-49.5688 Y2.4399 Z12.6937 F25.40
G3 X-49.9155 Y2.4524 Z12.6937 I-0.2677 J-2.6178 F25.40
G1 X-50.6489 Y1.7190 Z12.6937 F25.40
G1 X-50.6489 Y2.0782 Z12.6937 F25.40
G1 X-50.2747 Y2.4524 Z12.6937 F25.40
G1 X-50.6339 Y2.4524 Z12.6937 F25.40
G3 X-50.6489 Y2.4374 Z12.6937 I-0.0075 J-0.0075 F25.40
G1 X-50.6339 Y2.4524 Z12.6937 F25.40
G0 Z17.7800
G0 X-44.1806 Y1.6326
G0 Z15.7480
G1 X-44.1806 Y1.6326 Z12.6937 F12.70
G1 X-44.1721 Y1.6024 Z12.6937 F25.40
G1 X-43.8130 Y1.6622 Z12.6937 F25.40
G3 X-43.9141 Y1.8990 Z12.6937 I-0.9064 J-0.2473 F25.40
G1 X-44.1806 Y1.6326 Z12.6937 F25.40
G3 X-44.2970 Y1.8753 Z12.6937 I-0.7559 J-0.2134 F25.40
G1 X-44.0658 Y2.1066 Z12.6937 F25.40
G3 X-44.2725 Y2.2591 Z12.6937 I-0.4722 J-0.4237 F25.40
G1 X-44.4659 Y2.0656 Z12.6937 F25.40
G3 X-44.6954 Y2.1954 Z12.6937 I-0.4596 J-0.5448 F25.40
G1 X-44.5262 Y2.3646 Z12.6937 F25.40
G3 X-44.8235 Y2.4264 Z12.6937 I-0.3580 J-0.9759 F25.40
G1 X-44.9801 Y2.2698 Z12.6937 F25.40
G3 X-45.3291 Y2.2801 Z12.6937 I-0.2176 J-1.4598 F25.40
G1 X-45.1598 Y2.4493 Z12.6937 F25.40
G3 X-45.5330 Y2.4354 Z12.6937 I-0.1336 J-1.4219 F25.40
G1 X-45.7744 Y2.1940 Z12.6937 F25.40
G3 X-46.2343 Y1.7341 Z12.6937 I0.2147 J-0.6746 F25.40
G1 X-46.6337 Y1.3347 Z12.6937 F25.40
G2 X-46.5904 Y1.7372 Z12.6937 I0.7019 J0.1281 F25.40
G1 X-45.9986 Y2.3290 Z12.6937 F25.40
G3 X-46.5904 Y1.7372 Z12.6937 I0.2390 J-0.8309 F25.40
G0 X-46.5904 Y1.7372 Z17.7800
G0 X-46.6337 Y1.3347 Z17.7800
G1 X-46.6337 Y1.3347 Z12.6937 F12.70
G1 X-46.2343 Y1.7341 Z12.6937 F25.40
G3 X-46.2726 Y1.3366 Z12.6937 I0.8208 J-0.2798 F25.40
G1 X-46.5724 Y1.0368 Z12.6937 F25.40
G3 X-46.4361 Y0.8139 Z12.6937 I0.6037 J0.2159 F25.40
G1 X-46.1873 Y1.0627 Z12.6937 F25.40
G3 X-46.0116 Y0.8791 Z12.6937 I0.4902 J0.2932 F25.40
G1 X-46.2419 Y0.6489 Z12.6937 F25.40
G1 X-46.0054 Y0.5261 Z12.6937 F25.40
G1 X-45.7810 Y0.7506 Z12.6937 F25.40
G3 X-45.5144 Y0.6580 Z12.6937 I0.5868 J1.2586 F25.40
G1 X-45.7401 Y0.4322 Z12.6937 F25.40
G3 X-45.4596 Y0.3536 Z12.6937 I0.6972 J1.9458 F25.40
G1 X-45.2285 Y0.5846 Z12.6937 F25.40
G2 X-44.9429 Y0.5110 Z12.6937 I-14.8066 J-58.0327 F25.40
G1 X-45.1737 Y0.2802 Z12.6937 F25.40
G2 X-44.8877 Y0.2070 Z12.6937 I-0.5382 J-2.6985 F25.40
G1 X-44.6618 Y0.4329 Z12.6937 F25.40
G1 X-44.3928 Y0.3427 Z12.6937 F25.40
G1 X-44.6207 Y0.1148 Z12.6937 F25.40
G2 X-44.3861 Y-0.0098 Z12.6937 I-0.2798 J-0.8095 F25.40
G1 X-44.1543 Y0.2219 Z12.6937 F25.40
G2 X-43.9457 Y0.0714 Z12.6937 I-0.2482 J-0.5637 F25.40
G1 X-44.1957 Y-0.1787 Z12.6937 F25.40
G2 X-44.0664 Y-0.4086 Z12.6937 I-0.3861 J-0.3685 F25.40
G1 X-43.7878 Y-0.1299 Z12.6937 F25.40
G2 X-43.6935 Y-0.3949 Z12.6937 I-0.4560 J-0.3114 F25.40
G1 X-44.0409 Y-0.7422 Z12.6937 F25.40
G0 X-44.0409 Y-0.7422 Z17.7800
G0 X-44.0310 Y-1.4508 Z17.7800
G1 X-44.0310 Y-1.4508 Z12.6937 F12.70
G3 X-43.6755 Y-0.7360 Z12.6937 I-0.5923 J0.7405 F25.40
G1 X-44.6580 Y-1.7186 Z12.6937 F25.40
G2 X-45.0667 Y-1.7681 Z12.6937 I-0.3817 J1.4395 F25.40
G1 X-44.7139 Y-1.4153 Z12.6937 F25.40
G2 X-45.1252 Y-1.4673 Z12.6937 I-0.4204 J1.6707 F25.40
G1 X-45.4263 Y-1.7685 Z12.6937 F25.40
G2 X-45.7498 Y-1.7327 Z12.6937 I-0.0129 J1.3654 F25.40
G1 X-45.4764 Y-1.4593 Z12.6937 F25.40
G2 X-45.7792 Y-1.4029 Z12.6937 I0.0496 J1.1065 F25.40
G1 X-46.0370 Y-1.6607 Z12.6937 F25.40
G2 X-46.2856 Y-1.5501 Z12.6937 I0.1795 J0.7376 F25.40
G1 X-46.0336 Y-1.2981 Z12.6937 F25.40
G2 X-46.2435 Y-1.1488 Z12.6937 I0.2973 J0.6401 F25.40
G1 X-46.4938 Y-1.3991 Z12.6937 F25.40
G2 X-46.6615 Y-1.2076 Z12.6937 I0.3859 J0.5072 F25.40
G1 X-46.3955 Y-0.9415 Z12.6937 F25.40
G2 X-46.4627 Y-0.7899 Z12.6937 I0.4958 J0.3106 F25.40
G3 X-46.7873 Y-0.9741 Z12.6937 I-0.0255 J-0.3330 F25.40
G1 X-46.8215 Y-0.8598 Z12.6937 F25.40
G1 X-46.6370 Y-0.8239 Z12.6937 F25.40
G0 Z17.7800
G0 X-39.7764 Y2.4524
G0 Z15.7480
G1 X-39.7764 Y2.4524 Z12.6937 F12.70
G1 X-40.1288 Y2.1000 Z12.6937 F25.40
G2 X-39.9571 Y1.9125 Z12.6937 I0.0485 J-0.1279 F25.40
G1 X-39.6963 Y2.1733 Z12.6937 F25.40
G1 X-39.6963 Y1.8141 Z12.6937 F25.40
G1 X-39.9686 Y1.5418 Z12.6937 F25.40
G3 X-39.9743 Y1.1768 Z12.6937 I6.7485 J-0.2885 F25.40
G1 X-39.6963 Y1.4549 Z12.6937 F25.40
G1 X-39.6963 Y1.0957 Z12.6937 F25.40
G1 X-39.9743 Y0.8176 Z12.6937 F25.40
G1 X-39.9743 Y0.4584 Z12.6937 F25.40
G1 X-39.6963 Y0.7365 Z12.6937 F25.40
G1 X-39.6963 Y0.3773 Z12.6937 F25.40
G1 X-39.9743 Y0.0992 Z12.6937 F25.40
G1 X-39.9743 Y-0.2600 Z12.6937 F25.40
G1 X-39.6963 Y0.0181 Z12.6937 F25.40
G1 X-39.6963 Y-0.3412 Z12.6937 F25.40
G1 X-39.9743 Y-0.6192 Z12.6937 F25.40
G1 X-39.9743 Y-0.9785 Z12.6937 F25.40
G1 X-39.6963 Y-0.7004 Z12.6937 F25.40
G1 X-39.6963 Y-1.0596 Z12.6937 F25.40
G1 X-39.9743 Y-1.3377 Z12.6937 F25.40
G1 X-39.9743 Y-1.6969 Z12.6937 F25.40
G1 X-39.6963 Y-1.4188 Z12.6937 F25.40
G1 X-39.6963 Y-1.7780 Z12.6937 F25.40
G0 X-39.6963 Y-1.7780 Z17.7800
G0 X-40.9408 Y-0.1488 Z17.7800
G1 X-40.9408 Y-0.1488 Z12.6937 F12.70
G1 X-41.0227 Y-0.3766 Z12.6937 F25.40
G1 X-41.1686 Y-0.3766 Z12.6937 F25.40
G1 X-40.9408 Y-0.1488 Z12.6937 F25.40
G1 X-40.7390 Y0.4121 Z12.6937 F25.40
G1 X-41.0068 Y0.1443 Z12.6937 F25.40
G2 X-40.8655 Y0.6449 Z12.6937 I23.4878 J-6.3630 F25.40
G1 X-40.5373 Y0.9731 Z12.6937 F25.40
G3 X-40.3601 Y1.5095 Z12.6937 I-10.0962 J3.6328 F25.40
G1 X-40.6761 Y1.1934 Z12.6937 F25.40
G1 X-40.4723 Y1.7565 Z12.6937 F25.40
G3 X-40.1488 Y2.0960 Z12.6937 I-1.1153 J1.3864 F25.40
G1 X-40.1288 Y2.1000 Z12.6937 F25.40
G1 X-39.7764 Y2.4524 Z12.6937 F25.40
G1 X-40.1356 Y2.4524 Z12.6937 F25.40
G1 X-40.2203 Y2.4524 Z12.6937 F25.40
G1 X-40.2684 Y2.3196 Z12.6937 F25.40
G1 X-40.1356 Y2.4524 Z12.6937 F25.40
G0 X-40.1356 Y2.4524 Z17.7800
G0 X-42.0307 Y2.3534 Z17.7800
G1 X-42.0307 Y2.3534 Z12.6937 F12.70
G1 X-42.2802 Y2.1039 Z12.6937 F25.40
G2 X-42.0925 Y1.9324 Z12.6937 I0.0419 J-0.1426 F25.40
G1 X-41.9348 Y2.0901 Z12.6937 F25.40
G1 X-41.8388 Y1.8268 Z12.6937 F25.40
G1 X-42.0072 Y1.6584 Z12.6937 F25.40
G2 X-41.9211 Y1.3853 Z12.6937 I-12.4079 J-4.0601 F25.40
G1 X-41.7429 Y1.5635 Z12.6937 F25.40
G1 X-41.6470 Y1.3002 Z12.6937 F25.40
G1 X-41.8352 Y1.1120 Z12.6937 F25.40
G3 X-41.7394 Y0.8486 Z12.6937 I373.8020 J135.8859 F25.40
G1 X-41.5510 Y1.0369 Z12.6937 F25.40
G2 X-41.4588 Y0.7699 Z12.6937 I-2.8218 J-1.1238 F25.40
G1 X-41.6435 Y0.5853 Z12.6937 F25.40
G1 X-41.5477 Y0.3219 Z12.6937 F25.40
G1 X-41.3771 Y0.4925 Z12.6937 F25.40
G2 X-41.3010 Y0.2094 Z12.6937 I-7.1121 J-2.0638 F25.40
G1 X-41.4518 Y0.0586 Z12.6937 F25.40
G1 X-41.3559 Y-0.2048 Z12.6937 F25.40
G1 X-41.1565 Y-0.0053 Z12.6937 F25.40
G0 X-41.1565 Y-0.0053 Z17.7800
G0 X-42.3567 Y-1.5647 Z17.7800
G1 X-42.3567 Y-1.5647 Z12.6937 F12.70
G1 X-42.3567 Y-1.7780 Z12.6937 F25.40
G1 X-42.5699 Y-1.7780 Z12.6937 F25.40
G1 X-42.3567 Y-1.5647 Z12.6937 F25.40
G1 X-42.3567 Y-1.2055 Z12.6937 F25.40
G1 X-42.6282 Y-1.4771 Z12.6937 F25.40
G1 X-42.6282 Y-1.1178 Z12.6937 F25.40
G1 X-42.3567 Y-0.8463 Z12.6937 F25.40
G1 X-42.3567 Y-0.4871 Z12.6937 F25.40
G1 X-42.6282 Y-0.7586 Z12.6937 F25.40
G1 X-42.6282 Y-0.3994 Z12.6937 F25.40
G1 X-42.3567 Y-0.1279 Z12.6937 F25.40
G1 X-42.3567 Y0.2313 Z12.6937 F25.40
G1 X-42.6282 Y-0.0402 Z12.6937 F25.40
G1 X-42.6282 Y0.3190 Z12.6937 F25.40
G1 X-42.3567 Y0.5905 Z12.6937 F25.40
G1 X-42.3567 Y0.9497 Z12.6937 F25.40
G1 X-42.6282 Y0.6782 Z12.6937 F25.40
G1 X-42.6282 Y1.0374 Z12.6937 F25.40
G1 X-42.3587 Y1.3069 Z12.6937 F25.40
G3 X-42.3634 Y1.6614 Z12.6937 I-26.3129 J-0.1687 F25.40
G1 X-42.6282 Y1.3966 Z12.6937 F25.40
G1 X-42.6282 Y1.7558 Z12.6937 F25.40
G1 X-42.3544 Y2.0297 Z12.6937 F25.40
G2 X-42.2802 Y2.1039 Z12.6937 I0.0798 J-0.0056 F25.40
G1 X-42.0307 Y2.3534 Z12.6937 F25.40
G1 X-42.0668 Y2.4524 Z12.6937 F25.40
G1 X-42.2908 Y2.4524 Z12.6937 F25.40
G1 X-42.6282 Y2.4524 Z12.6937 F25.40
G1 X-42.6282 Y2.1150 Z12.6937 F25.40
G1 X-42.2908 Y2.4524 Z12.6937 F25.40
G0 Z17.7800
G0 X-35.9779 Y2.7064
G0 Z15.7480
G1 X-35.9779 Y2.7064 Z12.6937 F12.70
G1 X-35.7571 Y2.7064 Z12.6937 F25.40
G1 X-35.7571 Y2.8728 Z12.6937 F25.40
G1 X-35.8114 Y2.8728 Z12.6937 F25.40
G1 X-35.9779 Y2.7064 Z12.6937 F25.40
G3 X-36.3374 Y2.7061 Z12.6937 I-0.1767 J-3.6102 F25.40
G1 X-36.1706 Y2.8728 Z12.6937 F25.40
G0 X-36.1706 Y2.8728 Z17.7800
G0 X-36.5330 Y2.8697 Z17.7800
G1 X-36.5330 Y2.8697 Z12.6937 F12.70
G3 X-37.3338 Y2.0689 Z12.6937 I-0.0185 J-0.7822 F25.40
G1 X-36.5330 Y2.8697 Z12.6937 F25.40
G2 X-36.1706 Y2.8728 Z12.6937 I0.1997 J-2.1048 F25.40
G1 X-36.3374 Y2.7061 Z12.6937 F25.40
G3 X-37.0079 Y2.0355 Z12.6937 I-0.0713 J-0.5993 F25.40
G1 X-37.3402 Y1.7033 Z12.6937 F25.40
G1 X-37.3402 Y1.3441 Z12.6937 F25.40
G1 X-37.0183 Y1.6660 Z12.6937 F25.40
G1 X-37.0183 Y1.3067 Z12.6937 F25.40
G1 X-37.3402 Y0.9849 Z12.6937 F25.40
G2 X-37.3632 Y0.6027 Z12.6937 I-1.8312 J-0.0817 F25.40
G1 X-37.0183 Y0.9475 Z12.6937 F25.40
G2 X-37.0499 Y0.5567 Z12.6937 I-1.3495 J-0.0876 F25.40
G1 X-37.5907 Y0.0159 Z12.6937 F25.40
G3 X-37.7753 Y-0.1687 Z12.6937 I-0.0159 J-0.1687 F25.40
G1 X-37.9259 Y-0.3193 Z12.6937 F25.40
G2 X-37.6840 Y-0.4366 Z12.6937 I-0.2075 J-0.7360 F25.40
G1 X-37.5599 Y-0.3125 Z12.6937 F25.40
G2 X-37.3293 Y-0.4411 Z12.6937 I-0.1873 J-0.6071 F25.40
G1 X-37.5029 Y-0.6147 Z12.6937 F25.40
G2 X-37.3825 Y-0.8535 Z12.6937 I-0.4223 J-0.3626 F25.40
G1 X-37.1540 Y-0.6250 Z12.6937 F25.40
G2 X-37.0437 Y-0.8739 Z12.6937 I-0.4054 J-0.3287 F25.40
G1 X-37.3402 Y-1.1704 Z12.6937 F25.40
G1 X-37.3402 Y-1.5296 Z12.6937 F25.40
G1 X-37.0183 Y-1.2077 Z12.6937 F25.40
G1 X-37.0183 Y-1.5669 Z12.6937 F25.40
G1 X-37.3402 Y-1.8888 Z12.6937 F25.40
G1 X-37.3402 Y-2.2480 Z12.6937 F25.40
G1 X-37.0183 Y-1.9261 Z12.6937 F25.40
G3 X-37.0139 Y-2.2810 Z12.6937 I1.7223 J-0.1561 F25.40
G1 X-37.3034 Y-2.5705 Z12.6937 F25.40
G3 X-37.1962 Y-2.8224 Z12.6937 I0.6280 J0.1185 F25.40
G1 X-36.9714 Y-2.5977 Z12.6937 F25.40
G3 X-36.8454 Y-2.8309 Z12.6937 I0.5458 J0.1443 F25.40
G1 X-37.0221 Y-3.0076 Z12.6937 F25.40
G3 X-36.7862 Y-3.1309 Z12.6937 I0.3476 J0.3778 F25.40
G1 X-36.6250 Y-2.9697 Z12.6937 F25.40
G3 X-36.3091 Y-3.0130 Z12.6937 I0.2842 J0.8999 F25.40
G1 X-36.4755 Y-3.1794 Z12.6937 F25.40
G1 X-36.1163 Y-3.1794 Z12.6937 F25.40
G1 X-35.9499 Y-3.0130 Z12.6937 F25.40
G1 X-35.7571 Y-3.0130 Z12.6937 F25.40
G1 X-35.7571 Y-3.1794 Z12.6937 F25.40
G0 X-35.7571 Y-3.1794 Z17.7800
G0 X-37.4452 Y0.0739 Z17.7800
G1 X-37.4452 Y0.0739 Z12.6937 F12.70
G3 X-37.0499 Y0.5567 Z12.6937 I-0.3637 J0.7010 F25.40
G1 X-37.5907 Y0.0159 Z12.6937 F25.40
G3 X-37.4452 Y0.0739 Z12.6937 I-0.2181 J0.7590 F25.40
G0 X-37.4452 Y0.0739 Z17.7800
G0 X-37.9703 Y-0.0045 Z17.7800
G1 X-37.9703 Y-0.0045 Z12.6937 F12.70
G2 X-38.2423 Y-0.0528 Z12.6937 I-0.2671 J0.7131 F25.40
G1 X-38.2423 Y-0.2545 Z12.6937 F25.40
G1 X-38.2232 Y-0.2574 Z12.6937 F25.40
G1 X-37.9703 Y-0.0045 Z12.6937 F25.40
G0 Z17.7800
G0 X-31.7448 Y0.9505
G0 Z15.7480
G1 X-31.7448 Y0.9505 Z12.6937 F12.70
G2 X-31.6747 Y0.7789 Z12.6937 I-0.4376 J-0.2790 F25.40
G1 X-31.9355 Y0.7599 Z12.6937 F25.40
G1 X-31.7448 Y0.9505 Z12.6937 F25.40
G3 X-31.8848 Y1.1697 Z12.6937 I-0.6976 J-0.2912 F25.40
G1 X-32.1110 Y0.9436 Z12.6937 F25.40
G3 X-32.2565 Y1.1573 Z12.6937 I-0.6416 J-0.2804 F25.40
G1 X-32.0704 Y1.3434 Z12.6937 F25.40
G3 X-32.2986 Y1.4744 Z12.6937 I-0.4774 J-0.5676 F25.40
G1 X-32.4533 Y1.3197 Z12.6937 F25.40
G3 X-32.7181 Y1.4141 Z12.6937 I-0.3881 J-0.6707 F25.40
G1 X-32.5687 Y1.5635 Z12.6937 F25.40
G3 X-32.8863 Y1.6051 Z12.6937 I-0.2882 J-0.9666 F25.40
G2 X-33.2737 Y1.4217 Z12.6937 I-0.3032 J0.1396 F25.40
G3 X-33.4974 Y1.3532 Z12.6937 I0.1348 J-0.8403 F25.40
G1 X-33.2596 Y1.5911 Z12.6937 F25.40
G0 X-33.2596 Y1.5911 Z17.7800
G0 X-33.7769 Y1.4330 Z17.7800
G1 X-33.7769 Y1.4330 Z12.6937 F12.70
G1 X-34.2664 Y0.9434 Z12.6937 F25.40
G2 X-33.7769 Y1.4330 Z12.6937 I0.9745 J-0.4849 F25.40
G2 X-33.2596 Y1.5911 Z12.6937 I0.6929 J-1.3420 F25.40
G1 X-33.4974 Y1.3532 Z12.6937 F25.40
G3 X-33.9686 Y0.8820 Z12.6937 I0.3218 J-0.7930 F25.40
G1 X-34.4639 Y0.3863 Z12.6937 F25.40
G1 X-34.4919 Y-0.0005 Z12.6937 F25.40
G1 X-34.0995 Y0.3919 Z12.6937 F25.40
G3 X-34.1275 Y0.0047 Z12.6937 I2.0438 J-0.3426 F25.40
G1 X-34.4821 Y-0.3499 Z12.6937 F25.40
G3 X-34.4349 Y-0.6619 Z12.6937 I1.2352 J0.0271 F25.40
G1 X-34.1190 Y-0.3460 Z12.6937 F25.40
G3 X-34.0802 Y-0.6664 Z12.6937 I1.8001 J0.0552 F25.40
G1 X-34.3517 Y-0.9379 Z12.6937 F25.40
G3 X-34.2317 Y-1.1771 Z12.6937 I0.6329 J0.1679 F25.40
G1 X-34.0050 Y-0.9504 Z12.6937 F25.40
G3 X-33.8852 Y-1.1898 Z12.6937 I1.0791 J0.3902 F25.40
G1 X-34.0734 Y-1.3780 Z12.6937 F25.40
G3 X-33.8760 Y-1.5399 Z12.6937 I0.4335 J0.3271 F25.40
G1 X-33.7157 Y-1.3795 Z12.6937 F25.40
G3 X-33.4938 Y-1.5168 Z12.6937 I0.3902 J0.3827 F25.40
G1 X-33.6432 Y-1.6663 Z12.6937 F25.40
G3 X-33.3629 Y-1.7452 Z12.6937 I0.4429 J1.0357 F25.40
G1 X-33.2107 Y-1.5929 Z12.6937 F25.40
G3 X-32.8612 Y-1.6027 Z12.6937 I0.2066 J1.1357 F25.40
G1 X-33.0316 Y-1.7731 Z12.6937 F25.40
G3 X-32.6459 Y-1.7466 Z12.6937 I0.1188 J1.0900 F25.40
G1 X-31.8284 Y-0.9290 Z12.6937 F25.40
G1 X-31.6631 Y-0.9389 Z12.6937 F25.40
G2 X-31.8723 Y-1.3322 Z12.6937 I-0.7645 J0.1544 F25.40
G0 Z17.7800
G0 X-28.5876 Y0.2053
G0 Z15.7480
G1 X-28.5876 Y0.2053 Z12.6937 F12.70
G1 X-28.7588 Y0.0342 Z12.6937 F25.40
G3 X-29.1391 Y0.0131 Z12.6937 I-0.0213 J-3.0531 F25.40
G1 X-28.9530 Y0.1991 Z12.6937 F25.40
G3 X-29.3292 Y0.1822 Z12.6937 I0.0185 J-4.5946 F25.40
G1 X-29.5962 Y-0.0848 Z12.6937 F25.40
G3 X-29.9988 Y-0.4874 Z12.6937 I0.2407 J-0.6433 F25.40
G1 X-30.4346 Y-0.9233 Z12.6937 F25.40
G2 X-30.4071 Y-0.5365 Z12.6937 I0.8692 J0.1324 F25.40
G2 X-29.7766 Y0.0940 Z12.6937 I0.8475 J-0.2170 F25.40
G1 X-30.4071 Y-0.5365 Z12.6937 F25.40
G0 X-30.4071 Y-0.5365 Z17.7800
G0 X-30.4346 Y-0.9233 Z17.7800
G1 X-30.4346 Y-0.9233 Z12.6937 F12.70
G1 X-29.9988 Y-0.4874 Z12.6937 F25.40
G3 X-30.0679 Y-0.9158 Z12.6937 I0.7338 J-0.3382 F25.40
G1 X-30.3840 Y-1.2319 Z12.6937 F25.40
G3 X-30.2611 Y-1.4681 Z12.6937 I0.5062 J0.1134 F25.40
G1 X-30.0080 Y-1.2151 Z12.6937 F25.40
G3 X-29.8651 Y-1.4313 Z12.6937 I0.5298 J0.1948 F25.40
G1 X-30.0776 Y-1.6438 Z12.6937 F25.40
G3 X-29.8181 Y-1.7435 Z12.6937 I0.3616 J0.5537 F25.40
G1 X-29.6430 Y-1.5685 Z12.6937 F25.40
G3 X-29.3225 Y-1.6072 Z12.6937 I0.2494 J0.7188 F25.40
G1 X-29.4913 Y-1.7760 Z12.6937 F25.40
G3 X-29.0624 Y-1.7063 Z12.6937 I0.0202 J1.2302 F25.40
G1 X-28.8545 Y-1.4984 Z12.6937 F25.40
G3 X-28.4933 Y-1.2187 Z12.6937 I-0.5123 J1.0349 F25.40
G2 X-29.0624 Y-1.7063 Z12.6937 I-0.8831 J0.4550 F25.40
G0 X-29.0624 Y-1.7063 Z17.7800
G0 X-27.3050 Y-1.7449 Z17.7800
G1 X-27.3050 Y-1.7449 Z12.6937 F12.70
G1 X-27.3050 Y-1.6074 Z12.6937 F25.40
G2 X-27.5062 Y-1.5869 Z12.6937 I-0.0592 J0.4173 F25.40
G1 X-27.6926 Y-1.7733 Z12.6937 F25.40
G2 X-27.9658 Y-1.6873 Z12.6937 I-0.0184 J0.4183 F25.40
G1 X-27.7247 Y-1.4462 Z12.6937 F25.40
G2 X-27.8148 Y-1.1771 Z12.6937 I0.5457 J0.3324 F25.40
G1 X-28.1028 Y-1.4651 Z12.6937 F25.40
G2 X-28.1534 Y-1.1565 Z12.6937 I0.7061 J0.2741 F25.40
G1 X-27.8305 Y-0.8336 Z12.6937 F25.40
G1 X-27.8305 Y-0.4744 Z12.6937 F25.40
G1 X-28.3207 Y-0.9646 Z12.6937 F25.40
G3 X-28.1813 Y-0.4659 Z12.6937 I-1.0100 J0.5513 F25.40
G1 X-27.8305 Y-0.1152 Z12.6937 F25.40
G1 X-27.8305 Y0.2440 Z12.6937 F25.40
G1 X-28.1743 Y-0.0997 Z12.6937 F25.40
G3 X-28.3918 Y0.0419 Z12.6937 I-0.1504 J0.0070 F25.40
G1 X-27.8344 Y0.5994 Z12.6937 F25.40
G3 X-27.8788 Y0.9142 Z12.6937 I-0.8886 J0.0351 F25.40
G1 X-28.1789 Y0.6141 Z12.6937 F25.40
G3 X-28.2232 Y0.9290 Z12.6937 I-1.1689 J-0.0040 F25.40
G1 X-27.9831 Y1.1690 Z12.6937 F25.40
G3 X-28.1501 Y1.3613 Z12.6937 I-0.4325 J-0.2071 F25.40
G1 X-28.3448 Y1.1666 Z12.6937 F25.40
G3 X-28.5349 Y1.3357 Z12.6937 I-0.4613 J-0.3270 F25.40
G1 X-28.3752 Y1.4954 Z12.6937 F25.40
G3 X-28.6527 Y1.5771 Z12.6937 I-0.3535 J-0.6886 F25.40
G1 X-28.8044 Y1.4255 Z12.6937 F25.40
G3 X-29.1534 Y1.4356 Z12.6937 I-0.2061 J-1.0786 F25.40
G1 X-28.9801 Y1.6089 Z12.6937 F25.40
G3 X-29.3581 Y1.5901 Z12.6937 I-0.1247 J-1.3046 F25.40
G3 X-30.0411 Y0.9072 Z12.6937 I24.9703 J-25.6532 F25.40
G1 X-30.2517 Y0.9258 Z12.6937 F25.40
G2 X-30.1553 Y1.1522 Z12.6937 I0.5161 J-0.0861 F25.40
G1 X-29.8976 Y1.4099 Z12.6937 F25.40
G3 X-30.1553 Y1.1522 Z12.6937 I0.3233 J-0.5810 F25.40
G0 X-30.1553 Y1.1522 Z17.7800
G0 X-29.9757 Y0.9726 Z17.7800
G1 X-29.9757 Y0.9726 Z12.6937 F12.70
G1 X-29.7510 Y1.1973 Z12.6937 F25.40
G3 X-29.8949 Y0.8942 Z12.6937 I0.5082 J-0.4270 F25.40
G1 X-30.0411 Y0.9072 Z12.6937 F25.40
G1 X-29.9757 Y0.9726 Z12.6937 F25.40
G0 Z17.7800
G0 X-23.6333 Y2.8728
G0 Z15.7480
G1 X-23.6333 Y2.8728 Z12.6937 F12.70
G1 X-23.9614 Y2.8728 Z12.6937 F25.40
G1 X-23.9614 Y2.5447 Z12.6937 F25.40
G1 X-23.6333 Y2.8728 Z12.6937 F25.40
G1 X-23.6242 Y2.8728 Z12.6937 F25.40
G1 X-23.6242 Y2.5227 Z12.6937 F25.40
G1 X-23.9614 Y2.1855 Z12.6937 F25.40
G1 X-23.9614 Y1.8263 Z12.6937 F25.40
G1 X-23.6242 Y2.1635 Z12.6937 F25.40
G1 X-23.6242 Y1.8043 Z12.6937 F25.40
G1 X-23.9606 Y1.4679 Z12.6937 F25.40
G2 X-23.9598 Y1.1095 Z12.6937 I-10.9980 J-0.2037 F25.40
G1 X-23.6242 Y1.4451 Z12.6937 F25.40
G1 X-23.6242 Y1.0859 Z12.6937 F25.40
G1 X-24.0376 Y0.6725 Z12.6937 F25.40
G2 X-23.9831 Y0.3677 Z12.6937 I-1.0236 J-0.3401 F25.40
G1 X-23.6242 Y0.7266 Z12.6937 F25.40
G1 X-23.6242 Y0.3674 Z12.6937 F25.40
G1 X-23.9639 Y0.0277 Z12.6937 F25.40
G2 X-23.9742 Y-0.3418 Z12.6937 I-2.2191 J-0.1231 F25.40
G1 X-23.6242 Y0.0082 Z12.6937 F25.40
G1 X-23.6242 Y-0.3510 Z12.6937 F25.40
G1 X-24.0339 Y-0.7607 Z12.6937 F25.40
G0 X-24.0339 Y-0.7607 Z17.7800
G0 X-24.3754 Y-1.4614 Z17.7800
G1 X-24.3754 Y-1.4614 Z12.6937 F12.70
G2 X-24.4772 Y-1.5632 Z12.6937 I-0.3741 J0.2723 F25.40
G1 X-24.3754 Y-1.4614 Z12.6937 F25.40
G0 X-24.3754 Y-1.4614 Z17.7800
G0 X-23.6144 Y-1.7780 Z17.7800
G1 X-23.6144 Y-1.7780 Z12.6937 F12.70
G2 X-23.6240 Y-1.4284 Z12.6937 I9.2550 J0.4296 F25.40
G1 X-23.9319 Y-1.7363 Z12.6937 F25.40
G2 X-23.9467 Y-1.3920 Z12.6937 I4.3294 J0.3597 F25.40
G1 X-23.6242 Y-1.0694 Z12.6937 F25.40
G1 X-23.6242 Y-0.7102 Z12.6937 F25.40
G1 X-24.0417 Y-1.1277 Z12.6937 F25.40
G3 X-24.2045 Y-1.1877 Z12.6937 I-0.0455 J-0.1273 F25.40
G2 X-25.0439 Y-1.7707 Z12.6937 I-0.8514 J0.3300 F25.40
G1 X-24.8708 Y-1.5976 Z12.6937 F25.40
G2 X-25.2251 Y-1.5927 Z12.6937 I-0.1641 J0.9540 F25.40
G1 X-25.3910 Y-1.7586 Z12.6937 F25.40
G2 X-25.6768 Y-1.6851 Z12.6937 I0.0236 J0.6847 F25.40
G1 X-25.4909 Y-1.4993 Z12.6937 F25.40
G2 X-25.6846 Y-1.3338 Z12.6937 I0.2120 J0.4440 F25.40
G1 X-25.9013 Y-1.5505 Z12.6937 F25.40
G2 X-26.0674 Y-1.3574 Z12.6937 I0.3055 J0.4309 F25.40
G1 X-25.8217 Y-1.1116 Z12.6937 F25.40
G2 X-25.9113 Y-0.8420 Z12.6937 I0.7762 J0.4077 F25.40
G1 X-26.1881 Y-1.1189 Z12.6937 F25.40
G2 X-26.2717 Y-0.8432 Z12.6937 I0.8974 J0.4225 F25.40
G1 X-25.9626 Y-0.5342 Z12.6937 F25.40
G2 X-25.9831 Y-0.1954 Z12.6937 I1.9255 J0.2863 F25.40
G1 X-26.3208 Y-0.5331 Z12.6937 F25.40
G2 X-26.3392 Y-0.1923 Z12.6937 I1.5133 J0.2526 F25.40
G1 X-25.9774 Y0.1695 Z12.6937 F25.40
G2 X-25.9342 Y0.5719 Z12.6937 I2.1693 J-0.0294 F25.40
G1 X-26.3309 Y0.1752 Z12.6937 F25.40
G0 X-26.3309 Y0.1752 Z17.7800
G0 X-25.7619 Y1.4626 Z17.7800
G1 X-25.7619 Y1.4626 Z12.6937 F12.70
G1 X-26.0757 Y1.1488 Z12.6937 F25.40
G2 X-25.7619 Y1.4626 Z12.6937 I0.6434 J-0.3296 F25.40
G2 X-25.2618 Y1.6036 Z12.6937 I0.4391 J-0.6005 F25.40
G1 X-26.2815 Y0.5838 Z12.6937 F25.40
G3 X-26.3309 Y0.1752 Z12.6937 I1.7632 J-0.4206 F25.40
G1 X-25.9342 Y0.5719 Z12.6937 F25.40
G2 X-25.8648 Y0.8391 Z12.6937 I1.2302 J-0.1766 F25.40
G2 X-25.2305 Y1.4254 Z12.6937 I0.7771 J-0.2045 F25.40
G3 X-24.9207 Y1.5854 Z12.6937 I0.0577 J0.2683 F25.40
G2 X-24.6369 Y1.5100 Z12.6937 I-0.0243 J-0.6624 F25.40
G1 X-24.7351 Y1.4118 Z12.6937 F25.40
G2 X-24.5605 Y1.3589 Z12.6937 I-0.0924 J-0.6190 F25.40
G3 X-24.4190 Y1.3687 Z12.6937 I0.0694 J0.0248 F25.40
G2 X-24.2774 Y1.1511 Z12.6937 I-0.0690 J-0.1998 F25.40
G2 X-24.1337 Y0.9356 Z12.6937 I-0.3729 J-0.4043 F25.40
G1 X-24.0570 Y1.0123 Z12.6937 F25.40
G0 Z17.7800
G0 X-16.3956 Y0.2053
G0 Z15.7480
G1 X-16.3956 Y0.2053 Z12.6937 F12.70
G1 X-16.5668 Y0.0342 Z12.6937 F25.40
G3 X-16.9471 Y0.0131 Z12.6937 I-0.0213 J-3.0531 F25.40
G1 X-16.7610 Y0.1991 Z12.6937 F25.40
G3 X-17.1372 Y0.1822 Z12.6937 I0.0185 J-4.5946 F25.40
G1 X-17.4042 Y-0.0848 Z12.6937 F25.40
G3 X-17.8068 Y-0.4874 Z12.6937 I0.2407 J-0.6433 F25.40
G1 X-18.2426 Y-0.9233 Z12.6937 F25.40
G2 X-18.2151 Y-0.5365 Z12.6937 I0.8692 J0.1324 F25.40
G2 X-17.5846 Y0.0940 Z12.6937 I0.8475 J-0.2170 F25.40
G1 X-18.2151 Y-0.5365 Z12.6937 F25.40
G0 X-18.2151 Y-0.5365 Z17.7800
G0 X-18.2426 Y-0.9233 Z17.7800
G1 X-18.2426 Y-0.9233 Z12.6937 F12.70
G1 X-17.8068 Y-0.4874 Z12.6937 F25.40
G3 X-17.8759 Y-0.9158 Z12.6937 I0.7338 J-0.3382 F25.40
G1 X-18.1920 Y-1.2319 Z12.6937 F25.40
G3 X-18.0691 Y-1.4681 Z12.6937 I0.5062 J0.1134 F25.40
G1 X-17.8160 Y-1.2151 Z12.6937 F25.40
G3 X-17.6731 Y-1.4313 Z12.6937 I0.5298 J0.1948 F25.40
G1 X-17.8856 Y-1.6438 Z12.6937 F25.40
G3 X-17.6261 Y-1.7435 Z12.6937 I0.3616 J0.5537 F25.40
G1 X-17.4510 Y-1.5685 Z12.6937 F25.40
G3 X-17.1305 Y-1.6072 Z12.6937 I0.2494 J0.7188 F25.40
G1 X-17.2993 Y-1.7760 Z12.6937 F25.40
G3 X-16.8704 Y-1.7063 Z12.6937 I0.0202 J1.2302 F25.40
G1 X-16.6625 Y-1.4984 Z12.6937 F25.40
G3 X-16.3013 Y-1.2187 Z12.6937 I-0.5123 J1.0349 F25.40
G2 X-16.8704 Y-1.7063 Z12.6937 I-0.8831 J0.4550 F25.40
G0 X-16.8704 Y-1.7063 Z17.7800
G0 X-15.1130 Y-1.7449 Z17.7800
G1 X-15.1130 Y-1.7449 Z12.6937 F12.70
G1 X-15.1130 Y-1.6074 Z12.6937 F25.40
G2 X-15.3142 Y-1.5869 Z12.6937 I-0.0592 J0.4173 F25.40
G1 X-15.5006 Y-1.7733 Z12.6937 F25.40
G2 X-15.7738 Y-1.6873 Z12.6937 I-0.0184 J0.4183 F25.40
G1 X-15.5327 Y-1.4462 Z12.6937 F25.40
G2 X-15.6228 Y-1.1771 Z12.6937 I0.5457 J0.3324 F25.40
G1 X-15.9108 Y-1.4651 Z12.6937 F25.40
G2 X-15.9614 Y-1.1565 Z12.6937 I0.7061 J0.2741 F25.40
G1 X-15.6385 Y-0.8336 Z12.6937 F25.40
G1 X-15.6385 Y-0.4744 Z12.6937 F25.40
G1 X-16.1287 Y-0.9646 Z12.6937 F25.40
G3 X-15.9893 Y-0.4659 Z12.6937 I-1.0100 J0.5513 F25.40
G1 X-15.6385 Y-0.1152 Z12.6937 F25.40
G1 X-15.6385 Y0.2440 Z12.6937 F25.40
G1 X-15.9823 Y-0.0997 Z12.6937 F25.40
G3 X-16.1998 Y0.0419 Z12.6937 I-0.1504 J0.0070 F25.40
G1 X-15.6424 Y0.5994 Z12.6937 F25.40
G3 X-15.6868 Y0.9142 Z12.6937 I-0.8886 J0.0351 F25.40
G1 X-15.9869 Y0.6141 Z12.6937 F25.40
G3 X-16.0312 Y0.9290 Z12.6937 I-1.1689 J-0.0040 F25.40
G1 X-15.7911 Y1.1690 Z12.6937 F25.40
G3 X-15.9581 Y1.3613 Z12.6937 I-0.4325 J-0.2071 F25.40
G1 X-16.1528 Y1.1666 Z12.6937 F25.40
G3 X-16.3429 Y1.3357 Z12.6937 I-0.4613 J-0.3270 F25.40
G1 X-16.1832 Y1.4954 Z12.6937 F25.40
G3 X-16.4607 Y1.5771 Z12.6937 I-0.3535 J-0.6886 F25.40
G1 X-16.6124 Y1.4255 Z12.6937 F25.40
G3 X-16.9614 Y1.4356 Z12.6937 I-0.2061 J-1.0786 F25.40
G1 X-16.7881 Y1.6089 Z12.6937 F25.40
G3 X-17.1661 Y1.5901 Z12.6937 I-0.1247 J-1.3046 F25.40
G3 X-17.8491 Y0.9072 Z12.6937 I24.9703 J-25.6532 F25.40
G1 X-18.0597 Y0.9258 Z12.6937 F25.40
G2 X-17.9633 Y1.1522 Z12.6937 I0.5161 J-0.0861 F25.40
G1 X-17.7056 Y1.4099 Z12.6937 F25.40
G3 X-17.9633 Y1.1522 Z12.6937 I0.3233 J-0.5810 F25.40
G0 X-17.9633 Y1.1522 Z17.7800
G0 X-17.7837 Y0.9726 Z17.7800
G1 X-17.7837 Y0.9726 Z12.6937 F12.70
G1 X-17.5590 Y1.1973 Z12.6937 F25.40
G3 X-17.7029 Y0.8942 Z12.6937 I0.5082 J-0.4270 F25.40
G1 X-17.8491 Y0.9072 Z12.6937 F25.40
G1 X-17.7837 Y0.9726 Z12.6937 F25.40
G0 Z17.7800
G0 X-14.0033 Y1.3785
G0 Z15.7480
G1 X-14.0033 Y1.3785 Z12.6937 F12.70
G1 X-13.7703 Y1.6116 Z12.6937 F25.40
G1 X-14.0108 Y1.6116 Z12.6937 F25.40
G2 X-14.0033 Y1.3785 Z12.6937 I-18.8972 J-0.7216 F25.40
G2 X-13.9969 Y1.0258 Z12.6937 I-9.6431 J-0.3533 F25.40
G1 X-13.6924 Y1.3302 Z12.6937 F25.40
G3 X-13.6638 Y0.9997 Z12.6937 I0.5484 J-0.1190 F25.40
G1 X-13.9963 Y0.6672 Z12.6937 F25.40
G1 X-13.9963 Y0.3079 Z12.6937 F25.40
G1 X-13.5723 Y0.7320 Z12.6937 F25.40
G2 X-12.9107 Y1.3935 Z12.6937 I0.9586 J-0.2971 F25.40
G2 X-12.3388 Y1.6062 Z12.6937 I0.4530 J-0.3430 F25.40
G1 X-12.5062 Y1.4388 Z12.6937 F25.40
G2 X-12.2149 Y1.3709 Z12.6937 I-0.0262 J-0.7717 F25.40
G1 X-12.0267 Y1.5591 Z12.6937 F25.40
G2 X-11.7808 Y1.4458 Z12.6937 I-0.1018 J-0.5442 F25.40
G1 X-11.9999 Y1.2267 Z12.6937 F25.40
G2 X-11.8594 Y1.0080 Z12.6937 I-0.4362 J-0.4347 F25.40
G1 X-11.6042 Y1.2632 Z12.6937 F25.40
G2 X-11.4856 Y1.0225 Z12.6937 I-0.4401 J-0.3663 F25.40
G1 X-11.7785 Y0.7296 Z12.6937 F25.40
G2 X-11.7541 Y0.3949 Z12.6937 I-1.2461 J-0.2593 F25.40
G1 X-11.4273 Y0.7217 Z12.6937 F25.40
G2 X-11.4125 Y0.3773 Z12.6937 I-2.8542 J-0.2952 F25.40
G1 X-11.7541 Y0.0357 Z12.6937 F25.40
G1 X-11.7541 Y-0.3235 Z12.6937 F25.40
G1 X-11.4125 Y0.0181 Z12.6937 F25.40
G1 X-11.4125 Y-0.3412 Z12.6937 F25.40
G1 X-11.7541 Y-0.6827 Z12.6937 F25.40
G1 X-11.7541 Y-1.0420 Z12.6937 F25.40
G1 X-11.4125 Y-0.7004 Z12.6937 F25.40
G1 X-11.4125 Y-1.0596 Z12.6937 F25.40
G1 X-11.7541 Y-1.4012 Z12.6937 F25.40
G1 X-11.7541 Y-1.7604 Z12.6937 F25.40
G1 X-11.4125 Y-1.4188 Z12.6937 F25.40
G1 X-11.4125 Y-1.7780 Z12.6937 F25.40
G0 X-11.4125 Y-1.7780 Z17.7800
G0 X-13.9270 Y-1.7780 Z17.7800
G1 X-13.9270 Y-1.7780 Z12.6937 F12.70
G1 X-13.6591 Y-1.7780 Z12.6937 F25.40
G1 X-13.6591 Y-1.5101 Z12.6937 F25.40
G1 X-13.9270 Y-1.7780 Z12.6937 F25.40
G1 X-13.9963 Y-1.7780 Z12.6937 F25.40
G1 X-13.9963 Y-1.4881 Z12.6937 F25.40
G1 X-13.6591 Y-1.1509 Z12.6937 F25.40
G1 X-13.6591 Y-0.7917 Z12.6937 F25.40
G1 X-13.9963 Y-1.1289 Z12.6937 F25.40
G1 X-13.9963 Y-0.7697 Z12.6937 F25.40
G1 X-13.6591 Y-0.4325 Z12.6937 F25.40
G1 X-13.6591 Y-0.0733 Z12.6937 F25.40
G1 X-13.9963 Y-0.4105 Z12.6937 F25.40
G1 X-13.9963 Y-0.0513 Z12.6937 F25.40
G1 X-13.6523 Y0.2927 Z12.6937 F25.40
G2 X-13.5723 Y0.7320 Z12.6937 I1.2111 J0.0062 F25.40
G1 X-13.9963 Y0.3079 Z12.6937 F25.40
G0 Z17.7800
G0 X-7.3682 Y2.8728
G0 Z15.7480
G1 X-7.3682 Y2.8728 Z12.6937 F12.70
G1 X-7.7054 Y2.8728 Z12.6937 F25.40
G1 X-7.7054 Y2.8508 Z12.6937 F25.40
G1 X-7.3682 Y2.5136 Z12.6937 F25.40
G1 X-7.3682 Y2.1544 Z12.6937 F25.40
G1 X-7.7054 Y2.4916 Z12.6937 F25.40
G1 X-7.7054 Y2.1324 Z12.6937 F25.40
G1 X-7.3682 Y1.7952 Z12.6937 F25.40
G1 X-7.3682 Y1.4360 Z12.6937 F25.40
G1 X-7.7054 Y1.7732 Z12.6937 F25.40
G3 X-7.7038 Y1.4124 Z12.6937 I12.8098 J-0.1241 F25.40
G1 X-7.3682 Y1.0768 Z12.6937 F25.40
G1 X-7.3682 Y0.7176 Z12.6937 F25.40
G1 X-7.7197 Y1.0691 Z12.6937 F25.40
G2 X-7.9420 Y1.0701 Z12.6937 I-0.1108 J0.0683 F25.40
G3 X-8.5878 Y1.5780 Z12.6937 I-0.8003 J-0.3531 F25.40
G1 X-8.3990 Y1.3892 Z12.6937 F25.40
G3 X-8.8104 Y1.4414 Z12.6937 I-0.3249 J-0.9144 F25.40
G1 X-8.9755 Y1.6064 Z12.6937 F25.40
G3 X-9.2858 Y1.5575 Z12.6937 I-0.0474 J-0.7086 F25.40
G1 X-9.1112 Y1.3829 Z12.6937 F25.40
G3 X-9.3413 Y1.2538 Z12.6937 I0.1369 J-0.5137 F25.40
G1 X-9.5327 Y1.4452 Z12.6937 F25.40
G3 X-9.7241 Y1.2774 Z12.6937 I0.2174 J-0.4407 F25.40
G1 X-9.5068 Y1.0601 Z12.6937 F25.40
G3 X-9.6165 Y0.8106 Z12.6937 I0.7458 J-0.4765 F25.40
G1 X-9.8674 Y1.0615 Z12.6937 F25.40
G3 X-9.9697 Y0.8046 Z12.6937 I0.6138 J-0.3933 F25.40
G1 X-9.6851 Y0.5200 Z12.6937 F25.40
G3 X-9.7204 Y0.1961 Z12.6937 I1.7211 J-0.3515 F25.40
G1 X-10.0370 Y0.5127 Z12.6937 F25.40
G3 X-10.0742 Y0.1907 Z12.6937 I1.3903 J-0.3237 F25.40
G1 X-9.7285 Y-0.1550 Z12.6937 F25.40
G3 X-9.7064 Y-0.5364 Z12.6937 I2.1877 J-0.0642 F25.40
G1 X-10.0848 Y-0.1579 Z12.6937 F25.40
G3 X-10.0641 Y-0.5379 Z12.6937 I1.7076 J-0.0974 F25.40
G1 X-9.6198 Y-0.9822 Z12.6937 F25.40
G3 X-9.0172 Y-1.5848 Z12.6937 I0.7912 J0.1886 F25.40
G1 X-8.8291 Y-1.7728 Z12.6937 F25.40
G2 X-9.2093 Y-1.7518 Z12.6937 I-0.1163 J1.3443 F25.40
G2 X-9.9730 Y-0.9882 Z12.6937 I0.1617 J0.9253 F25.40
G1 X-9.2093 Y-1.7518 Z12.6937 F25.40
G0 X-9.2093 Y-1.7518 Z17.7800
G0 X-8.8291 Y-1.7728 Z17.7800
G1 X-8.8291 Y-1.7728 Z12.6937 F12.70
G1 X-9.0172 Y-1.5848 Z12.6937 F25.40
G3 X-8.7601 Y-1.6110 Z12.6937 I0.2347 J1.0262 F25.40
G2 X-8.5219 Y-1.7208 Z12.6937 I0.0735 J-0.1538 F25.40
G3 X-8.2791 Y-1.6045 Z12.6937 I-0.1610 J0.6475 F25.40
G1 X-8.3509 Y-1.5326 Z12.6937 F25.40
G3 X-8.1408 Y-1.4109 Z12.6937 I-0.1644 J0.5261 F25.40
G2 X-8.0956 Y-1.4288 Z12.6937 I0.0209 J-0.0134 F25.40
G3 X-7.8402 Y-0.9657 Z12.6937 I-1.1375 J0.9291 F25.40
G1 X-7.3678 Y-1.4381 Z12.6937 F25.40
G2 X-7.3682 Y-1.0785 Z12.6937 I9.1451 J0.1900 F25.40
G1 X-7.7622 Y-0.6845 Z12.6937 F25.40
G3 X-7.7193 Y-0.3681 Z12.6937 I-1.5175 J0.3667 F25.40
G1 X-7.3682 Y-0.7193 Z12.6937 F25.40
G1 X-7.3682 Y-0.3601 Z12.6937 F25.40
G1 X-7.7057 Y-0.0225 Z12.6937 F25.40
G3 X-7.7253 Y0.3562 Z12.6937 I-1.7965 J0.0971 F25.40
G1 X-7.3682 Y-0.0009 Z12.6937 F25.40
G1 X-7.3682 Y0.3584 Z12.6937 F25.40
G1 X-7.8291 Y0.8193 Z12.6937 F25.40
G0 X-7.8291 Y0.8193 Z17.7800
G0 X-7.6891 Y-1.4760 Z17.7800
G1 X-7.6891 Y-1.4760 Z12.6937 F12.70
G3 X-7.6730 Y-1.7780 Z12.6937 I6.1750 J0.1771 F25.40
G1 X-7.3871 Y-1.7780 Z12.6937 F25.40
G1 X-7.6891 Y-1.4760 Z12.6937 F25.40
G0 Z17.7800
G0 X0.6154 Y1.1862
G0 Z15.7480
G1 X0.6154 Y1.1862 Z12.6937 F12.70
G3 X-0.1405 Y1.5829 Z12.6937 I-0.9227 J-0.8396 F25.40
G1 X0.6753 Y0.7671 Z12.6937 F25.40
G1 X0.4690 Y0.7520 Z12.6937 F25.40
G3 X-0.3534 Y1.4366 Z12.6937 I-0.8436 J-0.1771 F25.40
G1 X-0.5238 Y1.6070 Z12.6937 F25.40
G3 X-0.8462 Y1.5702 Z12.6937 I-0.0351 J-1.1241 F25.40
G1 X-0.7029 Y1.4269 Z12.6937 F25.40
G3 X-0.9877 Y1.3525 Z12.6937 I0.0340 J-0.7125 F25.40
G1 X-1.1259 Y1.4906 Z12.6937 F25.40
G3 X-1.3637 Y1.3693 Z12.6937 I0.1430 J-0.5742 F25.40
G1 X-1.2114 Y1.2170 Z12.6937 F25.40
G3 X-1.3812 Y1.0276 Z12.6937 I0.6698 J-0.7712 F25.40
G1 X-1.5646 Y1.2110 Z12.6937 F25.40
G3 X-1.7208 Y1.0079 Z12.6937 I0.3971 J-0.4670 F25.40
G1 X-1.4997 Y0.7869 Z12.6937 F25.40
G3 X-1.5727 Y0.5006 Z12.6937 I1.0407 J-0.4176 F25.40
G1 X-1.8439 Y0.7719 Z12.6937 F25.40
G3 X-1.9286 Y0.4974 Z12.6937 I0.9991 J-0.4587 F25.40
G1 X-1.6086 Y0.1773 Z12.6937 F25.40
G3 X-1.6137 Y-0.1767 Z12.6937 I2.2459 J-0.2097 F25.40
G1 X-1.9671 Y0.1766 Z12.6937 F25.40
G3 X-1.9807 Y-0.1690 Z12.6937 I1.3097 J-0.2245 F25.40
G1 X-1.5814 Y-0.5683 Z12.6937 F25.40
G3 X-1.4318 Y-1.0770 Z12.6937 I1.2423 J0.0888 F25.40
G1 X-1.9406 Y-0.5683 Z12.6937 F25.40
G0 X-1.9406 Y-0.5683 Z17.7800
G0 X-1.7688 Y-1.0993 Z17.7800
G1 X-1.7688 Y-1.0993 Z12.6937 F12.70
G3 X-1.2780 Y-1.5901 Z12.6937 I0.9488 J0.4579 F25.40
G1 X-1.7688 Y-1.0993 Z12.6937 F25.40
G2 X-1.9406 Y-0.5683 Z12.6937 I0.8590 J0.5711 F25.40
G1 X-1.4318 Y-1.0770 Z12.6937 F25.40
G3 X-0.9973 Y-1.5116 Z12.6937 I0.7822 J0.3476 F25.40
G1 X-0.7557 Y-1.7532 Z12.6937 F25.40
G3 X-0.3784 Y-1.7713 Z12.6937 I0.2462 J1.1907 F25.40
G1 X-0.5422 Y-1.6075 Z12.6937 F25.40
G3 X-0.2105 Y-1.5799 Z12.6937 I0.0900 J0.9244 F25.40
G1 X-0.0616 Y-1.7289 Z12.6937 F25.40
G3 X0.2078 Y-1.6391 Z12.6937 I-0.1292 J0.8366 F25.40
G1 X0.0539 Y-1.4851 Z12.6937 F25.40
G3 X0.2596 Y-1.3317 Z12.6937 I-0.3022 J0.6198 F25.40
G1 X0.4376 Y-1.5096 Z12.6937 F25.40
G3 X0.6293 Y-1.3421 Z12.6937 I-0.3628 J0.6088 F25.40
G1 X0.4093 Y-1.1221 Z12.6937 F25.40
G3 X0.4683 Y-0.9787 Z12.6937 I-0.6318 J0.3438 F25.40
G2 X0.5685 Y-0.9222 Z12.6937 I0.0549 J0.0197 F25.40
G1 X0.7742 Y-1.1278 Z12.6937 F25.40
G3 X0.8489 Y-0.9389 Z12.6937 I-0.4465 J0.2858 F25.40
G1 X0.5685 Y-0.9222 Z12.6937 F25.40
G0 Z17.7800
G0 X4.3912 Y1.3401
G0 Z15.7480
G1 X4.3912 Y1.3401 Z12.6937 F12.70
G3 X3.7784 Y1.5937 Z12.6937 I-0.7191 J-0.8706 F25.40
G1 X4.6698 Y0.7023 Z12.6937 F25.40
G2 X4.6815 Y0.3314 Z12.6937 I-2.4258 J-0.2620 F25.40
G1 X4.3293 Y0.6836 Z12.6937 F25.40
G2 X4.3342 Y0.3195 Z12.6937 I-2.5615 J-0.2166 F25.40
G1 X4.6815 Y-0.0278 Z12.6937 F25.40
G1 X4.6815 Y-0.3870 Z12.6937 F25.40
G1 X4.3263 Y-0.0318 Z12.6937 F25.40
G2 X4.3366 Y-0.4013 Z12.6937 I-1.7778 J-0.2344 F25.40
G1 X4.6815 Y-0.7462 Z12.6937 F25.40
G3 X4.6927 Y-1.1166 Z12.6937 I2.5303 J-0.1089 F25.40
G1 X4.2876 Y-0.7115 Z12.6937 F25.40
G0 X4.2876 Y-0.7115 Z17.7800
G0 X4.1883 Y-0.9714 Z17.7800
G1 X4.1883 Y-0.9714 Z12.6937 F12.70
G2 X4.1394 Y-1.0544 Z12.6937 I-0.2817 J0.1101 F25.40
G2 X4.2521 Y-1.0352 Z12.6937 I0.0765 J-0.1084 F25.40
G1 X4.1883 Y-0.9714 Z12.6937 F25.40
G3 X4.2876 Y-0.7115 Z12.6937 I-0.7727 J0.4441 F25.40
G1 X4.6927 Y-1.1166 Z12.6937 F25.40
G3 X4.8174 Y-1.4866 Z12.6937 I0.6439 J0.0110 F25.40
G3 X5.2070 Y-1.6309 Z12.6937 I0.3652 J0.3876 F25.40
G1 X5.2070 Y-1.6074 Z12.6937 F25.40
G1 X5.1850 Y-1.6089 Z12.6937 F25.40
G0 X5.1850 Y-1.6089 Z17.7800
G0 X4.5235 Y-1.6659 Z17.7800
G1 X4.5235 Y-1.6659 Z12.6937 F12.70
G2 X4.4913 Y-1.6337 Z12.6937 I0.0437 J0.0759 F25.40
G1 X4.5235 Y-1.6659 Z12.6937 F25.40
G0 X4.5235 Y-1.6659 Z17.7800
G0 X4.4913 Y-1.6337 Z17.7800
G1 X4.4913 Y-1.6337 Z12.6937 F12.70
G3 X4.9885 Y-1.7716 Z12.6937 I0.3629 J0.3429 F25.40
G1 X4.3559 Y-1.1391 Z12.6937 F25.40
G0 X4.3559 Y-1.1391 Z17.7800
G0 X3.8971 Y-1.3987 Z17.7800
G1 X3.8971 Y-1.3987 Z12.6937 F12.70
G3 X4.0187 Y-1.2187 Z12.6937 I-0.4658 J0.4458 F25.40
G2 X3.8648 Y-1.3664 Z12.6937 I-0.5582 J0.4279 F25.40
G1 X3.8971 Y-1.3987 Z12.6937 F25.40
G2 X3.7117 Y-1.5725 Z12.6937 I-0.6807 J0.5406 F25.40
G1 X3.6429 Y-1.5037 Z12.6937 F25.40
G2 X3.3687 Y-1.5887 Z12.6937 I-0.3243 J0.5614 F25.40
G1 X3.4766 Y-1.6966 Z12.6937 F25.40
G2 X3.1872 Y-1.7664 Z12.6937 I-0.3277 J0.7235 F25.40
G1 X3.0237 Y-1.6029 Z12.6937 F25.40
G2 X2.4623 Y-1.0415 Z12.6937 I0.0464 J0.6077 F25.40
G1 X2.0896 Y-0.6688 Z12.6937 F25.40
G3 X2.0843 Y-1.0227 Z12.6937 I1.0263 J-0.1923 F25.40
G1 X2.8276 Y-1.7660 Z12.6937 F25.40
G2 X2.0843 Y-1.0227 Z12.6937 I0.0204 J0.7637 F25.40
G0 X2.0843 Y-1.0227 Z17.7800
G0 X2.0896 Y-0.6688 Z17.7800
G1 X2.0896 Y-0.6688 Z12.6937 F12.70
G1 X2.4623 Y-1.0415 Z12.6937 F25.40
G2 X2.4582 Y-0.6781 Z12.6937 I0.7631 J0.1904 F25.40
G1 X2.1600 Y-0.3800 Z12.6937 F25.40
G2 X2.3060 Y-0.1668 Z12.6937 I0.5842 J-0.2435 F25.40
G1 X2.5454 Y-0.4062 Z12.6937 F25.40
G2 X2.7097 Y-0.2112 Z12.6937 I0.5466 J-0.2940 F25.40
G1 X2.5058 Y-0.0073 Z12.6937 F25.40
G2 X2.7575 Y0.1001 Z12.6937 I0.4153 J-0.6242 F25.40
G1 X2.9345 Y-0.0768 Z12.6937 F25.40
G2 X3.2169 Y-0.0001 Z12.6937 I0.3608 J-0.7699 F25.40
G1 X3.0527 Y0.1641 Z12.6937 F25.40
G2 X3.3823 Y0.1938 Z12.6937 I0.3379 J-1.9104 F25.40
G1 X3.5482 Y0.0279 Z12.6937 F25.40
G2 X3.8980 Y0.0372 Z12.6937 I0.2518 J-2.8637 F25.40
G1 X3.7332 Y0.2021 Z12.6937 F25.40
G1 X4.0864 Y0.2081 Z12.6937 F25.40
G1 X4.2636 Y0.0309 Z12.6937 F25.40
G0 X4.2636 Y0.0309 Z17.7800
G0 X3.5733 Y1.4396 Z17.7800
G1 X3.5733 Y1.4396 Z12.6937 F12.70
G1 X3.4060 Y1.6069 Z12.6937 F25.40
G3 X3.0777 Y1.5760 Z12.6937 I-0.0476 J-1.2523 F25.40
G1 X3.2286 Y1.4251 Z12.6937 F25.40
G3 X2.9490 Y1.3455 Z12.6937 I0.0275 J-0.6270 F25.40
G1 X2.7944 Y1.5001 Z12.6937 F25.40
G3 X2.5587 Y1.3766 Z12.6937 I0.2014 J-0.6710 F25.40
G1 X2.7515 Y1.1838 Z12.6937 F25.40
G3 X2.6284 Y0.9476 Z12.6937 I0.5100 J-0.4158 F25.40
G1 X2.3842 Y1.1918 Z12.6937 F25.40
G3 X2.2663 Y0.9505 Z12.6937 I0.4569 J-0.3727 F25.40
G1 X2.2940 Y0.9228 Z12.6937 F25.40
G1 X2.2603 Y0.9258 Z12.6937 F25.40
G1 X2.2663 Y0.9505 Z12.6937 F25.40
G0 Z17.7800
G0 X8.9306 Y1.4830
G0 Z15.7480
G1 X8.9306 Y1.4830 Z12.6937 F12.70
G3 X8.4512 Y1.6032 Z12.6937 I-0.3632 J-0.4327 F25.40
G1 X9.1281 Y0.9263 Z12.6937 F25.40
G2 X9.1507 Y0.5444 Z12.6937 I-2.4963 J-0.3397 F25.40
G1 X8.8313 Y0.8639 Z12.6937 F25.40
G2 X8.8509 Y0.4851 Z12.6937 I-1.3238 J-0.2586 F25.40
G1 X9.1528 Y0.1832 Z12.6937 F25.40
G1 X9.1528 Y-0.1760 Z12.6937 F25.40
G1 X8.8550 Y0.1218 Z12.6937 F25.40
G1 X8.8550 Y-0.2374 Z12.6937 F25.40
G1 X9.1528 Y-0.5352 Z12.6937 F25.40
G1 X9.1528 Y-0.8944 Z12.6937 F25.40
G1 X8.8550 Y-0.5966 Z12.6937 F25.40
G1 X8.8550 Y-0.9558 Z12.6937 F25.40
G1 X9.1528 Y-1.2536 Z12.6937 F25.40
G1 X9.1528 Y-1.6128 Z12.6937 F25.40
G1 X8.8550 Y-1.3150 Z12.6937 F25.40
G1 X8.8550 Y-1.6742 Z12.6937 F25.40
G3 X8.8550 Y-1.7780 Z12.6937 I0.0519 J-0.0519 F25.40
G3 X8.9587 Y-1.7780 Z12.6937 I0.0519 J0.0519 F25.40
G1 X8.8550 Y-1.6742 Z12.6937 F25.40
G0 X8.8550 Y-1.6742 Z17.7800
G0 X7.4602 Y-1.7163 Z17.7800
G1 X7.4602 Y-1.7163 Z12.6937 F12.70
G3 X7.4602 Y-1.7780 Z12.6937 I0.0309 J-0.0309 F25.40
G3 X7.5219 Y-1.7780 Z12.6937 I0.0309 J0.0309 F25.40
G1 X7.4602 Y-1.7163 Z12.6937 F25.40
G1 X7.4602 Y-1.3571 Z12.6937 F25.40
G1 X7.7579 Y-1.6549 Z12.6937 F25.40
G1 X7.7579 Y-1.2956 Z12.6937 F25.40
G1 X7.4602 Y-0.9979 Z12.6937 F25.40
G1 X7.4602 Y-0.6386 Z12.6937 F25.40
G1 X7.7579 Y-0.9364 Z12.6937 F25.40
G1 X7.7579 Y-0.5772 Z12.6937 F25.40
G1 X7.4602 Y-0.2794 Z12.6937 F25.40
G1 X7.4602 Y0.0798 Z12.6937 F25.40
G1 X7.7579 Y-0.2180 Z12.6937 F25.40
G1 X7.7579 Y0.1412 Z12.6937 F25.40
G1 X7.4581 Y0.4411 Z12.6937 F25.40
G1 X7.4412 Y0.8171 Z12.6937 F25.40
G1 X7.7761 Y0.4823 Z12.6937 F25.40
G2 X7.8111 Y0.8064 Z12.6937 I1.2390 J0.0298 F25.40
G1 X7.0177 Y1.5999 Z12.6937 F25.40
G2 X7.4185 Y1.5433 Z12.6937 I0.1181 J-0.6114 F25.40
G2 X7.6534 Y1.0598 Z12.6937 I-0.4318 J-0.5086 F25.40
G3 X7.8623 Y0.9981 Z12.6937 I0.1251 J0.0392 F25.40
G3 X7.8111 Y0.8064 Z12.6937 I0.7184 J-0.2946 F25.40
G0 X7.8111 Y0.8064 Z17.7800
G0 X8.0267 Y1.3092 Z17.7800
G1 X8.0267 Y1.3092 Z12.6937 F12.70
G2 X8.0022 Y1.2637 Z12.6937 I-0.0134 J-0.0222 F25.40
G2 X8.0267 Y1.3092 Z12.6937 I0.1041 J-0.0268 F25.40
G2 X8.1949 Y1.5003 Z12.6937 I0.4575 J-0.2330 F25.40
G1 X8.2636 Y1.4316 Z12.6937 F25.40
G0 X8.2636 Y1.4316 Z17.7800
G0 X6.8359 Y1.4225 Z17.7800
G1 X6.8359 Y1.4225 Z12.6937 F12.70
G3 X6.6679 Y1.3159 Z12.6937 I0.1218 J-0.3774 F25.40
G2 X6.7833 Y1.4750 Z12.6937 I0.3768 J-0.1518 F25.40
G1 X6.8359 Y1.4225 Z12.6937 F25.40
G0 X6.8359 Y1.4225 Z17.7800
G0 X6.0506 Y1.4894 Z17.7800
G1 X6.0506 Y1.4894 Z12.6937 F12.70
G1 X6.0464 Y1.6116 Z12.6937 F25.40
G1 X6.2833 Y1.6116 Z12.6937 F25.40
G2 X6.2934 Y1.2465 Z12.6937 I-11.1539 J-0.4918 F25.40
G1 X6.0506 Y1.4894 Z12.6937 F25.40
G2 X6.0595 Y1.1212 Z12.6937 I-9.6340 J-0.4180 F25.40
G1 X6.4196 Y0.7611 Z12.6937 F25.40
G3 X6.3816 Y0.4399 Z12.6937 I1.2685 J-0.3129 F25.40
G1 X6.0610 Y0.7605 Z12.6937 F25.40
G1 X6.0610 Y0.4013 Z12.6937 F25.40
G1 X6.3609 Y0.1014 Z12.6937 F25.40
G1 X6.3609 Y-0.2579 Z12.6937 F25.40
G1 X6.0610 Y0.0421 Z12.6937 F25.40
G1 X6.0610 Y-0.3171 Z12.6937 F25.40
G1 X6.3609 Y-0.6171 Z12.6937 F25.40
G1 X6.3609 Y-0.9763 Z12.6937 F25.40
G1 X6.0610 Y-0.6763 Z12.6937 F25.40
G1 X6.0610 Y-1.0355 Z12.6937 F25.40
G1 X6.3609 Y-1.3355 Z12.6937 F25.40
G1 X6.3609 Y-1.6947 Z12.6937 F25.40
G1 X6.0610 Y-1.3947 Z12.6937 F25.40
G1 X6.0610 Y-1.7539 Z12.6937 F25.40
G1 X6.0850 Y-1.7780 Z12.6937 F25.40
G2 X6.0610 Y-1.7539 Z12.6937 I-0.0120 J0.0120 F25.40
G0 Z17.7800
G0 X16.6756 Y0.9234
G0 Z15.7480
G1 X16.6756 Y0.9234 Z12.6937 F12.70
G1 X16.6815 Y0.8985 Z12.6937 F25.40
G1 X16.9536 Y0.9343 Z12.6937 F25.40
G3 X16.8715 Y1.1193 Z12.6937 I-0.4725 J-0.0989 F25.40
G1 X16.6756 Y0.9234 Z12.6937 F25.40
G3 X16.5493 Y1.1563 Z12.6937 I-0.5456 J-0.1451 F25.40
G1 X16.7124 Y1.3194 Z12.6937 F25.40
G3 X16.4966 Y1.4628 Z12.6937 I-0.4849 J-0.4958 F25.40
G1 X16.3562 Y1.3224 Z12.6937 F25.40
G3 X16.0902 Y1.4156 Z12.6937 I-0.3914 J-0.6913 F25.40
G1 X16.2340 Y1.5595 Z12.6937 F25.40
G3 X15.9190 Y1.6036 Z12.6937 I-0.3417 J-1.2927 F25.40
G1 X15.7605 Y1.4451 Z12.6937 F25.40
G3 X15.3602 Y1.4040 Z12.6937 I-0.0664 J-1.3235 F25.40
G1 X15.5563 Y1.6001 Z12.6937 F25.40
G0 X15.5563 Y1.6001 Z17.7800
G0 X15.1050 Y1.5081 Z17.7800
G1 X15.1050 Y1.5081 Z12.6937 F12.70
G3 X14.5699 Y0.9730 Z12.6937 I0.2192 J-0.7543 F25.40
G1 X15.1050 Y1.5081 Z12.6937 F25.40
G2 X15.5563 Y1.6001 Z12.6937 I0.4550 J-1.0791 F25.40
G1 X15.3602 Y1.4040 Z12.6937 F25.40
G3 X14.8373 Y0.8812 Z12.6937 I0.0585 J-0.5813 F25.40
G1 X14.5477 Y0.5915 Z12.6937 F25.40
G3 X14.6476 Y0.3322 Z12.6937 I0.4136 J0.0106 F25.40
G1 X14.8851 Y0.5697 Z12.6937 F25.40
G3 X15.0480 Y0.3735 Z12.6937 I0.4049 J0.1704 F25.40
G1 X14.8280 Y0.1534 Z12.6937 F25.40
G3 X15.0645 Y0.0308 Z12.6937 I0.3857 J0.4546 F25.40
G1 X15.2897 Y0.2559 Z12.6937 F25.40
G3 X15.5615 Y0.1685 Z12.6937 I0.6773 J1.6399 F25.40
G1 X15.3347 Y-0.0583 Z12.6937 F25.40
G3 X15.6142 Y-0.1380 Z12.6937 I1.6133 J5.1246 F25.40
G1 X15.8482 Y0.0960 Z12.6937 F25.40
G2 X16.1307 Y0.0192 Z12.6937 I-1.7080 J-6.8457 F25.40
G1 X15.8995 Y-0.2119 Z12.6937 F25.40
G2 X16.1753 Y-0.2953 Z12.6937 I-0.4477 J-1.9786 F25.40
G1 X16.4063 Y-0.0644 Z12.6937 F25.40
G2 X16.6543 Y-0.1756 Z12.6937 I-0.3055 J-1.0136 F25.40
G1 X16.4343 Y-0.3955 Z12.6937 F25.40
G2 X16.6380 Y-0.5511 Z12.6937 I-0.2641 J-0.5569 F25.40
G1 X16.8624 Y-0.3267 Z12.6937 F25.40
G2 X17.0077 Y-0.5406 Z12.6937 I-0.3070 J-0.3649 F25.40
G1 X16.7548 Y-0.7935 Z12.6937 F25.40
G2 X16.7048 Y-1.2027 Z12.6937 I-0.5974 J-0.1347 F25.40
G1 X17.0695 Y-0.8380 Z12.6937 F25.40
G1 X17.0698 Y-0.8355 Z12.6937 F25.40
G0 X17.0698 Y-0.8355 Z17.7800
G0 X16.8845 Y-1.3822 Z17.7800
G1 X16.8845 Y-1.3822 Z12.6937 F12.70
G3 X17.0695 Y-0.8380 Z12.6937 I-0.6580 J0.5273 F25.40
G1 X16.7048 Y-1.2027 Z12.6937 F25.40
G2 X16.4239 Y-1.4836 Z12.6937 I-0.5414 J0.2605 F25.40
G1 X16.1672 Y-1.7403 Z12.6937 F25.40
G0 X16.1672 Y-1.7403 Z17.7800
G0 X16.4239 Y-1.4836 Z17.7800
G1 X16.4239 Y-1.4836 Z12.6937 F12.70
G1 X16.1672 Y-1.7403 Z12.6937 F25.40
G2 X15.7713 Y-1.7770 Z12.6937 I-0.3327 J1.4354 F25.40
G1 X15.9520 Y-1.5962 Z12.6937 F25.40
G2 X15.5859 Y-1.6032 Z12.6937 I-0.2102 J1.4239 F25.40
G1 X15.4274 Y-1.7617 Z12.6937 F25.40
G2 X15.1193 Y-1.7106 Z12.6937 I0.0563 J1.2943 F25.40
G1 X15.2614 Y-1.5685 Z12.6937 F25.40
G2 X15.0050 Y-1.4656 Z12.6937 I0.1074 J0.6388 F25.40
G1 X14.8534 Y-1.6173 Z12.6937 F25.40
G2 X14.6439 Y-1.4675 Z12.6937 I0.1980 J0.4982 F25.40
G1 X14.8127 Y-1.2987 Z12.6937 F25.40
G3 X14.6778 Y-1.0744 Z12.6937 I-2.3609 J-1.2676 F25.40
G1 X14.4313 Y-1.1221 Z12.6937 F25.40
G3 X14.4910 Y-1.2612 Z12.6937 I0.3733 J0.0779 F25.40
G1 X14.6778 Y-1.0744 Z12.6937 F25.40
G0 Z17.7800
G0 X20.1010 Y1.6116
G0 Z15.7480
G1 X20.1010 Y1.6116 Z12.6937 F12.70
G1 X19.7418 Y1.6116 Z12.6937 F25.40
G1 X20.1010 Y1.2524 Z12.6937 F25.40
G1 X20.1010 Y0.8932 Z12.6937 F25.40
G1 X19.7638 Y1.2304 Z12.6937 F25.40
G1 X19.7638 Y0.8712 Z12.6937 F25.40
G1 X20.1010 Y0.5340 Z12.6937 F25.40
G1 X20.1010 Y0.1747 Z12.6937 F25.40
G1 X19.7638 Y0.5120 Z12.6937 F25.40
G1 X19.7638 Y0.1527 Z12.6937 F25.40
G1 X20.1010 Y-0.1845 Z12.6937 F25.40
G1 X20.1010 Y-0.5437 Z12.6937 F25.40
G1 X19.7638 Y-0.2065 Z12.6937 F25.40
G1 X19.7638 Y-0.5657 Z12.6937 F25.40
G1 X20.1010 Y-0.9029 Z12.6937 F25.40
G1 X20.1010 Y-1.2621 Z12.6937 F25.40
G1 X19.7638 Y-0.9249 Z12.6937 F25.40
G0 X19.7638 Y-0.9249 Z17.7800
G0 X18.4617 Y-1.7780 Z17.7800
G1 X18.4617 Y-1.7780 Z12.6937 F12.70
G1 X18.3778 Y-1.6941 Z12.6937 F25.40
G3 X18.3778 Y-1.7780 Z12.6937 I0.0420 J-0.0420 F25.40
G3 X18.4617 Y-1.7780 Z12.6937 I0.0420 J0.0420 F25.40
G1 X18.8209 Y-1.7780 Z12.6937 F25.40
G1 X18.6545 Y-1.6116 Z12.6937 F25.40
G1 X19.0137 Y-1.6116 Z12.6937 F25.40
G1 X19.1801 Y-1.7780 Z12.6937 F25.40
G1 X19.5393 Y-1.7780 Z12.6937 F25.40
G1 X19.3729 Y-1.6116 Z12.6937 F25.40
G3 X19.7076 Y-1.5871 Z12.6937 I0.1320 J0.4960 F25.40
G1 X19.8985 Y-1.7780 Z12.6937 F25.40
G1 X20.2577 Y-1.7780 Z12.6937 F25.40
G1 X19.7638 Y-1.2841 Z12.6937 F25.40
G1 X19.7638 Y-0.9249 Z12.6937 F25.40
G1 X20.1010 Y-1.2621 Z12.6937 F25.40
G1 X20.1010 Y-1.4846 Z12.6937 F25.40
G3 X20.1794 Y-1.6019 Z12.6937 I0.1270 J-0.0000 F25.40
G3 X20.4505 Y-1.6116 Z12.6937 I0.1598 J0.6766 F25.40
G1 X20.6169 Y-1.7780 Z12.6937 F25.40
G1 X20.9761 Y-1.7780 Z12.6937 F25.40
G1 X20.8097 Y-1.6116 Z12.6937 F25.40
G1 X21.1689 Y-1.6116 Z12.6937 F25.40
G1 X21.3354 Y-1.7780 Z12.6937 F25.40
G1 X21.3491 Y-1.7780 Z12.6937 F25.40
G1 X21.3491 Y-1.6116 Z12.6937 F25.40
G1 X21.1689 Y-1.6116 Z12.6937 F25.40
G0 X21.1689 Y-1.6116 Z17.7800
G0 X19.5490 Y1.4452 Z17.7800
G1 X19.5490 Y1.4452 Z12.6937 F12.70
G1 X19.3826 Y1.6116 Z12.6937 F25.40
G1 X19.0234 Y1.6116 Z12.6937 F25.40
G1 X19.1898 Y1.4452 Z12.6937 F25.40
G1 X18.8306 Y1.4452 Z12.6937 F25.40
G1 X18.7150 Y1.4452 Z12.6937 F25.40
G1 X18.7150 Y1.5608 Z12.6937 F25.40
G1 X18.8306 Y1.4452 Z12.6937 F25.40
G0 Z17.7800
G0 X20.1010 Y2.8728
G0 Z15.7480
G1 X20.1010 Y2.8728 Z12.6937 F12.70
G1 X19.7418 Y2.8728 Z12.6937 F25.40
G1 X20.1010 Y2.5136 Z12.6937 F25.40
G1 X20.1010 Y2.4261 Z12.6937 F25.40
G1 X19.8293 Y2.4261 Z12.6937 F25.40
G1 X19.6981 Y2.4261 Z12.6937 F25.40
G1 X19.6981 Y2.5573 Z12.6937 F25.40
G1 X19.8293 Y2.4261 Z12.6937 F25.40
G0 Z17.7800
G0 X24.8435 Y1.6080
G0 Z15.7480
G1 X24.8435 Y1.6080 Z12.6937 F12.70
G3 X24.2582 Y1.2637 Z12.6937 I-0.0581 J-0.5709 F25.40
G2 X24.6738 Y1.4384 Z12.6937 I0.3463 J-0.2421 F25.40
G1 X24.8435 Y1.6080 Z12.6937 F25.40
G2 X25.1240 Y1.5294 Z12.6937 I0.0182 J-0.4749 F25.40
G1 X24.9173 Y1.3226 Z12.6937 F25.40
G2 X25.0384 Y1.0846 Z12.6937 I-0.2801 J-0.2925 F25.40
G1 X25.2846 Y1.3308 Z12.6937 F25.40
G2 X25.3675 Y1.0544 Z12.6937 I-0.7283 J-0.3691 F25.40
G1 X25.0937 Y0.7806 Z12.6937 F25.40
G1 X25.1091 Y0.4368 Z12.6937 F25.40
G1 X25.4012 Y0.7289 Z12.6937 F25.40
G2 X25.4088 Y0.3773 Z12.6937 I-5.8398 J-0.3015 F25.40
G1 X25.1110 Y0.0795 Z12.6937 F25.40
G1 X25.1110 Y-0.2797 Z12.6937 F25.40
G1 X25.4088 Y0.0181 Z12.6937 F25.40
G1 X25.4088 Y-0.3412 Z12.6937 F25.40
G1 X25.1110 Y-0.6390 Z12.6937 F25.40
G1 X25.1110 Y-0.9982 Z12.6937 F25.40
G1 X25.4088 Y-0.7004 Z12.6937 F25.40
G1 X25.4088 Y-1.0596 Z12.6937 F25.40
G1 X25.1110 Y-1.3574 Z12.6937 F25.40
G1 X25.1110 Y-1.7166 Z12.6937 F25.40
G1 X25.4088 Y-1.4188 Z12.6937 F25.40
G1 X25.4088 Y-1.7780 Z12.6937 F25.40
G0 X25.4088 Y-1.7780 Z17.7800
G0 X24.0139 Y-1.7360 Z17.7800
G1 X24.0139 Y-1.7360 Z12.6937 F12.70
G2 X23.9719 Y-1.7780 Z12.6937 I-0.0210 J-0.0210 F25.40
G1 X24.0139 Y-1.7360 Z12.6937 F25.40
G1 X24.0139 Y-1.3768 Z12.6937 F25.40
G1 X23.7162 Y-1.6746 Z12.6937 F25.40
G1 X23.7162 Y-1.3153 Z12.6937 F25.40
G1 X24.0139 Y-1.0175 Z12.6937 F25.40
G1 X24.0139 Y-0.6583 Z12.6937 F25.40
G1 X23.7162 Y-0.9561 Z12.6937 F25.40
G1 X23.7162 Y-0.5969 Z12.6937 F25.40
G1 X24.0139 Y-0.2991 Z12.6937 F25.40
G1 X24.0139 Y0.0601 Z12.6937 F25.40
G1 X23.7162 Y-0.2377 Z12.6937 F25.40
G1 X23.7162 Y0.1215 Z12.6937 F25.40
G1 X24.0290 Y0.4344 Z12.6937 F25.40
G2 X24.0735 Y0.8381 Z12.6937 I1.5336 J0.0352 F25.40
G1 X23.7125 Y0.4770 Z12.6937 F25.40
G1 X23.6971 Y0.8208 Z12.6937 F25.40
G1 X23.9179 Y1.0417 Z12.6937 F25.40
G2 X23.8352 Y1.3181 Z12.6937 I0.8077 J0.3925 F25.40
G1 X23.6366 Y1.1196 Z12.6937 F25.40
G3 X23.5003 Y1.3425 Z12.6937 I-0.4179 J-0.1023 F25.40
G1 X23.6888 Y1.5310 Z12.6937 F25.40
G3 X23.2298 Y1.4443 Z12.6937 I-0.1949 J-0.2267 F25.40
G3 X22.9239 Y1.3159 Z12.6937 I-0.0158 J-0.3908 F25.40
G2 X23.4088 Y1.6102 Z12.6937 I0.4489 J-0.1930 F25.40
G0 X23.4088 Y1.6102 Z17.7800
G0 X22.3034 Y1.5825 Z17.7800
G1 X22.3034 Y1.5825 Z12.6937 F12.70
G1 X22.3024 Y1.6116 Z12.6937 F25.40
G1 X22.3326 Y1.6116 Z12.6937 F25.40
G3 X22.3139 Y1.2337 Z12.6937 I1.0841 J-0.2430 F25.40
G1 X22.5449 Y1.4647 Z12.6937 F25.40
G2 X22.5511 Y1.1117 Z12.6937 I-18.6231 J-0.5056 F25.40
G1 X22.3170 Y0.8776 Z12.6937 F25.40
G1 X22.3170 Y0.5184 Z12.6937 F25.40
G1 X22.7133 Y0.9147 Z12.6937 F25.40
G3 X22.6405 Y0.4827 Z12.6937 I1.3571 J-0.4510 F25.40
G1 X22.3170 Y0.1592 Z12.6937 F25.40
G1 X22.3170 Y-0.2001 Z12.6937 F25.40
G1 X22.6169 Y0.0999 Z12.6937 F25.40
G1 X22.6169 Y-0.2593 Z12.6937 F25.40
G1 X22.3170 Y-0.5593 Z12.6937 F25.40
G1 X22.3170 Y-0.9185 Z12.6937 F25.40
G1 X22.6169 Y-0.6185 Z12.6937 F25.40
G1 X22.6169 Y-0.9777 Z12.6937 F25.40
G1 X22.3170 Y-1.2777 Z12.6937 F25.40
G1 X22.3170 Y-1.6369 Z12.6937 F25.40
G1 X22.6169 Y-1.3369 Z12.6937 F25.40
G1 X22.6169 Y-1.6961 Z12.6937 F25.40
G1 X22.5351 Y-1.7780 Z12.6937 F25.40
G3 X22.6169 Y-1.6961 Z12.6937 I0.0409 J0.0409 F25.40
G0 Z17.7800
G0 X27.3094 Y1.1677
G0 Z15.7480
G1 X27.3094 Y1.1677 Z12.6937 F12.70
G2 X27.6287 Y1.4870 Z12.6937 I0.7741 J-0.4549 F25.40
G1 X27.3094 Y1.1677 Z12.6937 F25.40
G1 X27.2389 Y1.0403 Z12.6937 F25.40
G2 X27.9376 Y1.4367 Z12.6937 I0.6994 J-0.4189 F25.40
G1 X28.1079 Y1.6070 Z12.6937 F25.40
G2 X28.4471 Y1.5870 Z12.6937 I0.1012 J-1.1725 F25.40
G1 X28.2814 Y1.4212 Z12.6937 F25.40
G2 X28.5361 Y1.3168 Z12.6937 I-0.1833 J-0.8098 F25.40
G1 X28.7236 Y1.5042 Z12.6937 F25.40
G2 X28.9398 Y1.3613 Z12.6937 I-0.1483 J-0.4595 F25.40
G1 X28.7233 Y1.1448 Z12.6937 F25.40
G2 X28.8560 Y0.9182 Z12.6937 I-0.4569 J-0.4198 F25.40
G1 X29.1021 Y1.1643 Z12.6937 F25.40
G2 X29.2193 Y0.9223 Z12.6937 I-0.5856 J-0.4329 F25.40
G1 X28.9410 Y0.6441 Z12.6937 F25.40
G2 X28.9865 Y0.3304 Z12.6937 I-1.3585 J-0.3571 F25.40
G1 X29.2978 Y0.6417 Z12.6937 F25.40
G1 X29.3421 Y0.3267 Z12.6937 F25.40
G1 X29.0028 Y-0.0126 Z12.6937 F25.40
G2 X28.9939 Y-0.3807 Z12.6937 I-2.9603 J-0.1131 F25.40
G1 X29.3587 Y-0.0159 Z12.6937 F25.40
G2 X29.3474 Y-0.3864 Z12.6937 I-2.1735 J-0.1193 F25.40
G1 X28.9377 Y-0.7961 Z12.6937 F25.40
G0 X28.9377 Y-0.7961 Z17.7800
G0 X28.9420 Y-1.5102 Z17.7800
G1 X28.9420 Y-1.5102 Z12.6937 F12.70
G3 X29.2919 Y-0.8011 Z12.6937 I-1.0104 J0.9395 F25.40
G1 X28.3290 Y-1.7640 Z12.6937 F25.40
G2 X27.9777 Y-1.7561 Z12.6937 I-0.1562 J0.8765 F25.40
G1 X28.1312 Y-1.6026 Z12.6937 F25.40
G2 X27.7869 Y-1.5877 Z12.6937 I-0.1294 J0.9946 F25.40
G1 X27.6875 Y-1.6871 Z12.6937 F25.40
G2 X27.4611 Y-1.5542 Z12.6937 I0.1830 J0.5707 F25.40
G1 X27.5218 Y-1.4936 Z12.6937 F25.40
G2 X27.3192 Y-1.3370 Z12.6937 I0.1927 J0.4586 F25.40
G1 X27.2933 Y-1.3629 Z12.6937 F25.40
G3 X27.1223 Y-1.1747 Z12.6937 I-0.1975 J-0.0076 F25.40
G1 X27.1709 Y-1.1260 Z12.6937 F25.40
G0 X27.1709 Y-1.1260 Z17.7800
G0 X26.9136 Y-3.1794 Z17.7800
G1 X26.9136 Y-3.1794 Z12.6937 F12.70
G3 X26.9831 Y-3.1099 Z12.6937 I0.0347 J0.0347 F25.40
G1 X26.9136 Y-3.1794 Z12.6937 F25.40
G1 X26.6437 Y-3.1794 Z12.6937 F25.40
G1 X26.6437 Y-3.0901 Z12.6937 F25.40
G1 X26.9831 Y-2.7507 Z12.6937 F25.40
G1 X26.9831 Y-2.3915 Z12.6937 F25.40
G1 X26.6437 Y-2.7309 Z12.6937 F25.40
G1 X26.6437 Y-2.3717 Z12.6937 F25.40
G1 X26.9831 Y-2.0323 Z12.6937 F25.40
G3 X26.9810 Y-1.6752 Z12.6937 I-16.0706 J0.0830 F25.40
G1 X26.6437 Y-2.0124 Z12.6937 F25.40
G1 X26.6437 Y-1.6532 Z12.6937 F25.40
G1 X26.9715 Y-1.3255 Z12.6937 F25.40
G2 X27.1223 Y-1.1747 Z12.6937 I0.1283 J0.0225 F25.40
G3 X27.1363 Y-1.0647 Z12.6937 I-0.0083 J0.0570 F25.40
G2 X27.0700 Y-0.8677 Z12.6937 I0.7528 J0.3632 F25.40
G1 X26.6437 Y-1.2940 Z12.6937 F25.40
G1 X26.6437 Y-0.9348 Z12.6937 F25.40
G1 X27.0108 Y-0.5678 Z12.6937 F25.40
G2 X26.9873 Y-0.2320 Z12.6937 I1.4991 J0.2732 F25.40
G1 X26.6437 Y-0.5756 Z12.6937 F25.40
G1 X26.6437 Y-0.2164 Z12.6937 F25.40
G1 X26.9954 Y0.1352 Z12.6937 F25.40
G2 X27.0476 Y0.5467 Z12.6937 I1.6964 J-0.0063 F25.40
G1 X26.6437 Y0.1428 Z12.6937 F25.40
G1 X26.6437 Y0.5020 Z12.6937 F25.40
G1 X27.0976 Y0.9559 Z12.6937 F25.40
G2 X26.9742 Y1.1917 Z12.6937 I0.0333 J0.1676 F25.40
G1 X26.6437 Y0.8612 Z12.6937 F25.40
G3 X26.6418 Y1.2185 Z12.6937 I-20.9333 J0.0643 F25.40
G1 X26.9589 Y1.5356 Z12.6937 F25.40
G1 X26.9549 Y1.6116 Z12.6937 F25.40
G1 X26.6757 Y1.6116 Z12.6937 F25.40
G1 X26.6312 Y1.5672 Z12.6937 F25.40
G1 X26.6295 Y1.6116 Z12.6937 F25.40
G1 X26.6757 Y1.6116 Z12.6937 F25.40
G0 Z17.7800
G0 X30.9771 Y2.8728
G0 Z15.7480
G1 X30.9771 Y2.8728 Z12.6937 F12.70
G2 X30.9771 Y2.8728 Z12.6937 I0.0000 J0.0000 F25.40
G1 X30.9771 Y2.8728 Z12.6937 F25.40
G1 X30.9771 Y2.7064 Z12.6937 F25.40
G1 X31.1699 Y2.7064 Z12.6937 F25.40
G1 X31.3363 Y2.8728 Z12.6937 F25.40
G1 X31.6955 Y2.8728 Z12.6937 F25.40
G1 X31.5291 Y2.7064 Z12.6937 F25.40
G2 X31.8659 Y2.6840 Z12.6937 I0.1345 J-0.5194 F25.40
G1 X32.0547 Y2.8728 Z12.6937 F25.40
G1 X32.2624 Y2.8728 Z12.6937 F25.40
G1 X32.2624 Y2.7213 Z12.6937 F25.40
G1 X31.9252 Y2.3841 Z12.6937 F25.40
G1 X31.9252 Y2.0248 Z12.6937 F25.40
G1 X32.2624 Y2.3621 Z12.6937 F25.40
G1 X32.2624 Y2.0028 Z12.6937 F25.40
G1 X31.9252 Y1.6656 Z12.6937 F25.40
G1 X31.9252 Y1.3064 Z12.6937 F25.40
G1 X32.2624 Y1.6436 Z12.6937 F25.40
G1 X32.2624 Y1.2844 Z12.6937 F25.40
G1 X31.9252 Y0.9472 Z12.6937 F25.40
G1 X31.9252 Y0.5880 Z12.6937 F25.40
G1 X32.2624 Y0.9252 Z12.6937 F25.40
G1 X32.2624 Y0.5660 Z12.6937 F25.40
G1 X31.9252 Y0.2288 Z12.6937 F25.40
G1 X31.9252 Y-0.1304 Z12.6937 F25.40
G1 X32.2624 Y0.2068 Z12.6937 F25.40
G1 X32.2624 Y-0.1524 Z12.6937 F25.40
G1 X31.9252 Y-0.4896 Z12.6937 F25.40
G1 X31.9252 Y-0.8488 Z12.6937 F25.40
G1 X32.2624 Y-0.5116 Z12.6937 F25.40
G1 X32.2624 Y-0.8708 Z12.6937 F25.40
G1 X31.9252 Y-1.2080 Z12.6937 F25.40
G0 X31.9252 Y-1.2080 Z17.7800
G0 X30.6368 Y-1.7780 Z17.7800
G1 X30.6368 Y-1.7780 Z12.6937 F12.70
G1 X30.5391 Y-1.7780 Z12.6937 F25.40
G1 X30.5391 Y-1.6116 Z12.6937 F25.40
G1 X30.8032 Y-1.6116 Z12.6937 F25.40
G1 X30.6368 Y-1.7780 Z12.6937 F25.40
G1 X30.9960 Y-1.7780 Z12.6937 F25.40
G1 X31.1624 Y-1.6116 Z12.6937 F25.40
G1 X31.5216 Y-1.6116 Z12.6937 F25.40
G1 X31.3552 Y-1.7780 Z12.6937 F25.40
G1 X31.7144 Y-1.7780 Z12.6937 F25.40
G1 X32.2624 Y-1.2301 Z12.6937 F25.40
G3 X32.2906 Y-1.5610 Z12.6937 I0.4617 J-0.1273 F25.40
G1 X32.0736 Y-1.7780 Z12.6937 F25.40
G1 X32.4329 Y-1.7780 Z12.6937 F25.40
G1 X32.5993 Y-1.6116 Z12.6937 F25.40
G1 X32.9585 Y-1.6116 Z12.6937 F25.40
G1 X32.7921 Y-1.7780 Z12.6937 F25.40
G1 X33.1513 Y-1.7780 Z12.6937 F25.40
G1 X33.3177 Y-1.6116 Z12.6937 F25.40
G1 X33.5105 Y-1.6116 Z12.6937 F25.40
G1 X33.5105 Y-1.7780 Z12.6937 F25.40
G0 Z17.7800
G0 X35.8671 Y1.5966
G0 Z15.7480
G1 X35.8671 Y1.5966 Z12.6937 F12.70
G1 X35.6201 Y1.3496 Z12.6937 F25.40
G2 X36.0748 Y1.4451 Z12.6937 I0.4527 J-1.0254 F25.40
G1 X36.2266 Y1.5969 Z12.6937 F25.40
G2 X36.5418 Y1.5529 Z12.6937 I0.0183 J-1.0195 F25.40
G1 X36.3881 Y1.3992 Z12.6937 F25.40
G2 X36.6380 Y1.2898 Z12.6937 I-0.1662 J-0.7200 F25.40
G1 X36.7963 Y1.4482 Z12.6937 F25.40
G2 X37.0112 Y1.3038 Z12.6937 I-0.1756 J-0.4935 F25.40
G1 X36.8242 Y1.1169 Z12.6937 F25.40
G2 X36.9661 Y0.8995 Z12.6937 I-0.4978 J-0.4799 F25.40
G1 X37.1846 Y1.1180 Z12.6937 F25.40
G1 X37.3185 Y0.8927 Z12.6937 F25.40
G1 X37.0662 Y0.6404 Z12.6937 F25.40
G2 X37.1264 Y0.3415 Z12.6937 I-1.0174 J-0.3606 F25.40
G1 X37.4101 Y0.6251 Z12.6937 F25.40
G2 X37.4679 Y0.3237 Z12.6937 I-0.9227 J-0.3333 F25.40
G1 X37.0478 Y-0.0963 Z12.6937 F25.40
G1 X37.4071 Y-0.0963 Z12.6937 F25.40
G1 X37.4950 Y-0.0084 Z12.6937 F25.40
G1 X37.4995 Y-0.0963 Z12.6937 F25.40
G1 X37.4071 Y-0.0963 Z12.6937 F25.40
G0 X37.4071 Y-0.0963 Z17.7800
G0 X36.8550 Y0.0701 Z17.7800
G1 X36.8550 Y0.0701 Z12.6937 F12.70
G1 X36.6886 Y-0.0963 Z12.6937 F25.40
G1 X36.3294 Y-0.0963 Z12.6937 F25.40
G1 X36.4958 Y0.0701 Z12.6937 F25.40
G1 X36.1366 Y0.0701 Z12.6937 F25.40
G1 X35.9702 Y-0.0963 Z12.6937 F25.40
G1 X35.6110 Y-0.0963 Z12.6937 F25.40
G1 X35.7774 Y0.0701 Z12.6937 F25.40
G1 X35.4182 Y0.0701 Z12.6937 F25.40
G1 X35.2518 Y-0.0963 Z12.6937 F25.40
G3 X34.9743 Y-0.1799 Z12.6937 I-0.0952 J-0.1864 F25.40
G3 X34.9751 Y-0.3731 Z12.6937 I0.4684 J-0.0947 F25.40
G1 X34.6720 Y-0.6762 Z12.6937 F25.40
G2 X34.6207 Y-0.3682 Z12.6937 I0.9757 J0.3206 F25.40
G1 X35.0662 Y0.0773 Z12.6937 F25.40
G2 X34.9897 Y0.3600 Z12.6937 I0.0801 J0.1734 F25.40
G1 X34.6037 Y-0.0260 Z12.6937 F25.40
G1 X34.6304 Y0.3599 Z12.6937 F25.40
G1 X35.1154 Y0.8449 Z12.6937 F25.40
G2 X35.6201 Y1.3496 Z12.6937 I0.8573 J-0.3526 F25.40
G1 X35.8671 Y1.5966 Z12.6937 F25.40
G3 X35.3865 Y1.4752 Z12.6937 I0.0211 J-1.0954 F25.40
G1 X34.7853 Y0.8740 Z12.6937 F25.40
G2 X35.3865 Y1.4752 Z12.6937 I0.9987 J-0.3975 F25.40
G0 X35.3865 Y1.4752 Z17.7800
G0 X34.6720 Y-0.6762 Z17.7800
G1 X34.6720 Y-0.6762 Z12.6937 F12.70
G1 X34.9751 Y-0.3731 Z12.6937 F25.40
G3 X35.0178 Y-0.6896 Z12.6937 I1.2730 J0.0106 F25.40
G1 X34.7577 Y-0.9497 Z12.6937 F25.40
G3 X34.8784 Y-1.1882 Z12.6937 I0.6193 J0.1637 F25.40
G1 X35.1040 Y-0.9625 Z12.6937 F25.40
G3 X35.2321 Y-1.1937 Z12.6937 I0.7351 J0.2563 F25.40
G1 X35.0357 Y-1.3901 Z12.6937 F25.40
G3 X35.2324 Y-1.5526 Z12.6937 I0.4429 J0.3355 F25.40
G1 X35.4048 Y-1.3801 Z12.6937 F25.40
G3 X35.6267 Y-1.5175 Z12.6937 I0.4621 J0.4987 F25.40
G1 X35.4697 Y-1.6745 Z12.6937 F25.40
G3 X35.7527 Y-1.7507 Z12.6937 I0.3449 J0.7168 F25.40
G1 X35.9087 Y-1.5947 Z12.6937 F25.40
G3 X36.2615 Y-1.6011 Z12.6937 I0.1969 J1.1213 F25.40
G1 X36.0849 Y-1.7777 Z12.6937 F25.40
G3 X36.4828 Y-1.7390 Z12.6937 I0.0690 J1.3562 F25.40
G1 X36.8657 Y-1.3562 Z12.6937 F25.40
G0 X36.8657 Y-1.3562 Z17.7800
G0 X37.1665 Y-1.4145 Z17.7800
G1 X37.1665 Y-1.4145 Z12.6937 F12.70
G3 X37.3593 Y-1.1530 Z12.6937 I-0.4893 J0.5625 F25.40
G1 X37.1328 Y-1.0890 Z12.6937 F25.40
G3 X36.9915 Y-1.2304 Z12.6937 I0.0183 J-0.1597 F25.40
G1 X37.1328 Y-1.0890 Z12.6937 F25.40
G0 Z17.7800
G0 X45.6477 Y2.8014
G0 Z15.7480
G1 X45.6477 Y2.8014 Z12.6937 F12.70
G1 X45.6477 Y2.6644 Z12.6937 F25.40
G3 X45.5212 Y2.6748 Z12.6937 I-0.1954 J-1.5908 F25.40
G1 X45.6477 Y2.8014 Z12.6937 F25.40
G3 X45.3420 Y2.8548 Z12.6937 I-0.2212 J-0.3644 F25.40
G1 X45.1828 Y2.6956 Z12.6937 F25.40
G3 X44.8266 Y2.6987 Z12.6937 I-0.1910 J-1.4969 F25.40
G1 X44.9979 Y2.8700 Z12.6937 F25.40
G3 X44.6309 Y2.8623 Z12.6937 I-0.1256 J-2.7520 F25.40
G1 X44.4044 Y2.6357 Z12.6937 F25.40
G3 X44.0090 Y2.2403 Z12.6937 I0.1784 J-0.5738 F25.40
G1 X43.6063 Y1.8376 Z12.6937 F25.40
G2 X43.6575 Y2.2480 Z12.6937 I1.3037 J0.0458 F25.40
G1 X44.2046 Y2.7951 Z12.6937 F25.40
G3 X43.6575 Y2.2480 Z12.6937 I0.1362 J-0.6832 F25.40
G0 X43.6575 Y2.2480 Z17.7800
G0 X43.3803 Y1.6116 Z17.7800
G1 X43.3803 Y1.6116 Z12.6937 F12.70
G1 X43.2139 Y1.4452 Z12.6937 F25.40
G1 X42.8546 Y1.4452 Z12.6937 F25.40
G1 X43.0211 Y1.6116 Z12.6937 F25.40
G1 X42.7443 Y1.6116 Z12.6937 F25.40
G1 X42.7443 Y1.4452 Z12.6937 F25.40
G1 X42.8546 Y1.4452 Z12.6937 F25.40
G0 X42.8546 Y1.4452 Z17.7800
G0 X43.2139 Y1.4452 Z17.7800
G1 X43.2139 Y1.4452 Z12.6937 F12.70
G1 X43.3803 Y1.6116 Z12.6937 F25.40
G3 X43.6063 Y1.8376 Z12.6937 I0.0655 J0.1606 F25.40
G1 X44.0090 Y2.2403 Z12.6937 F25.40
G3 X43.9443 Y1.8164 Z12.6937 I0.9010 J-0.3543 F25.40
G1 X43.5486 Y1.4207 Z12.6937 F25.40
G2 X43.5951 Y1.3668 Z12.6937 I-0.0418 J-0.0831 F25.40
G2 X43.6048 Y1.1177 Z12.6937 I-0.6213 J-0.1488 F25.40
G1 X44.0987 Y1.6116 Z12.6937 F25.40
G1 X44.4579 Y1.6116 Z12.6937 F25.40
G1 X44.2915 Y1.4452 Z12.6937 F25.40
G1 X44.0690 Y1.4452 Z12.6937 F25.40
G3 X43.9517 Y1.3668 Z12.6937 I0.0000 J-0.1270 F25.40
G3 X43.9420 Y1.0957 Z12.6937 I0.6766 J-0.1598 F25.40
G1 X43.6048 Y0.7585 Z12.6937 F25.40
G1 X43.6048 Y0.3993 Z12.6937 F25.40
G1 X43.9420 Y0.7365 Z12.6937 F25.40
G1 X43.9420 Y0.3773 Z12.6937 F25.40
G1 X43.6048 Y0.0401 Z12.6937 F25.40
G1 X43.6048 Y-0.3192 Z12.6937 F25.40
G1 X43.9420 Y0.0181 Z12.6937 F25.40
G1 X43.9420 Y-0.3412 Z12.6937 F25.40
G1 X43.6048 Y-0.6784 Z12.6937 F25.40
G1 X43.6048 Y-1.0376 Z12.6937 F25.40
G1 X43.9420 Y-0.7004 Z12.6937 F25.40
G1 X43.9420 Y-1.0596 Z12.6937 F25.40
G1 X43.6048 Y-1.3968 Z12.6937 F25.40
G1 X43.6048 Y-1.7560 Z12.6937 F25.40
G1 X43.9420 Y-1.4188 Z12.6937 F25.40
G1 X43.9420 Y-1.7780 Z12.6937 F25.40
G0 X43.9420 Y-1.7780 Z17.7800
G0 X44.4579 Y1.6116 Z17.7800
G1 X44.4579 Y1.6116 Z12.6937 F12.70
G1 X44.2915 Y1.4452 Z12.6937 F25.40
G1 X44.6507 Y1.4452 Z12.6937 F25.40
G1 X44.8171 Y1.6116 Z12.6937 F25.40
G1 X45.1763 Y1.6116 Z12.6937 F25.40
G1 X45.0099 Y1.4452 Z12.6937 F25.40
G1 X45.3691 Y1.4452 Z12.6937 F25.40
G1 X45.5355 Y1.6116 Z12.6937 F25.40
G1 X45.5558 Y1.6116 Z12.6937 F25.40
G1 X45.5558 Y1.4452 Z12.6937 F25.40
G1 X45.3691 Y1.4452 Z12.6937 F25.40
G0 Z17.7800
G0 X49.2059 Y1.4624
G0 Z15.7480
G1 X49.2059 Y1.4624 Z12.6937 F12.70
G1 X49.2059 Y1.6116 Z12.6937 F25.40
G1 X49.3551 Y1.6116 Z12.6937 F25.40
G1 X49.2059 Y1.4624 Z12.6937 F25.40
G1 X49.2059 Y1.1032 Z12.6937 F25.40
G1 X49.5475 Y1.4448 Z12.6937 F25.40
G1 X49.5475 Y1.0856 Z12.6937 F25.40
G1 X49.2059 Y0.7440 Z12.6937 F25.40
G1 X49.2059 Y0.3848 Z12.6937 F25.40
G1 X49.5475 Y0.7263 Z12.6937 F25.40
G1 X49.5475 Y0.3671 Z12.6937 F25.40
G1 X49.2059 Y0.0255 Z12.6937 F25.40
G1 X49.2059 Y-0.3337 Z12.6937 F25.40
G1 X49.5475 Y0.0079 Z12.6937 F25.40
G1 X49.5475 Y-0.3513 Z12.6937 F25.40
G1 X49.1686 Y-0.7302 Z12.6937 F25.40
G2 X49.0257 Y-1.1293 Z12.6937 I-1.0590 J0.1541 F25.40
G2 X49.1470 Y-1.1110 Z12.6937 I0.0773 J-0.1002 F25.40
G1 X49.5475 Y-0.7105 Z12.6937 F25.40
G1 X49.5475 Y-1.0697 Z12.6937 F25.40
G1 X49.2384 Y-1.3788 Z12.6937 F25.40
G3 X49.2525 Y-1.7239 Z12.6937 I5.4630 J0.0508 F25.40
G1 X49.5486 Y-1.4279 Z12.6937 F25.40
G3 X49.5576 Y-1.7780 Z12.6937 I11.1650 J0.1137 F25.40
G0 X49.5576 Y-1.7780 Z17.7800
G0 X48.2993 Y-1.5995 Z17.7800
G1 X48.2993 Y-1.5995 Z12.6937 F12.70
G3 X48.9009 Y-1.3004 Z12.6937 I-0.0624 J0.8802 F25.40
G2 X48.1303 Y-1.7685 Z12.6937 I-0.8154 J0.4739 F25.40
G1 X48.2993 Y-1.5995 Z12.6937 F25.40
G2 X47.9425 Y-1.5971 Z12.6937 I-0.1703 J1.1978 F25.40
G1 X47.7743 Y-1.7653 Z12.6937 F25.40
G2 X47.4773 Y-1.7031 Z12.6937 I-0.0290 J0.6027 F25.40
G1 X47.6698 Y-1.5105 Z12.6937 F25.40
G2 X47.4771 Y-1.3440 Z12.6937 I0.2364 J0.4684 F25.40
G1 X47.2527 Y-1.5685 Z12.6937 F25.40
G2 X47.0942 Y-1.3677 Z12.6937 I0.2344 J0.3479 F25.40
G1 X47.3633 Y-1.0987 Z12.6937 F25.40
G2 X47.3099 Y-0.7929 Z12.6937 I1.2702 J0.3794 F25.40
G1 X47.0072 Y-1.0955 Z12.6937 F25.40
G2 X46.9704 Y-0.7731 Z12.6937 I1.2394 J0.3047 F25.40
G1 X47.3009 Y-0.4426 Z12.6937 F25.40
G1 X47.3009 Y-0.0834 Z12.6937 F25.40
G1 X46.9637 Y-0.4206 Z12.6937 F25.40
G1 X46.9637 Y-0.0614 Z12.6937 F25.40
G1 X47.3009 Y0.2758 Z12.6937 F25.40
G1 X47.3009 Y0.6350 Z12.6937 F25.40
G1 X46.9637 Y0.2978 Z12.6937 F25.40
G1 X46.9637 Y0.6570 Z12.6937 F25.40
G1 X47.3009 Y0.9942 Z12.6937 F25.40
G1 X47.3009 Y1.3534 Z12.6937 F25.40
G1 X46.9637 Y1.0162 Z12.6937 F25.40
G1 X46.9637 Y1.3754 Z12.6937 F25.40
G1 X47.1999 Y1.6116 Z12.6937 F25.40
G1 X46.9637 Y1.6116 Z12.6937 F25.40
G1 X46.9637 Y1.3754 Z12.6937 F25.40
G0 Z17.7800
G0 X51.0207 Y1.3785
G0 Z15.7480
G1 X51.0207 Y1.3785 Z12.6937 F12.70
G1 X51.2537 Y1.6116 Z12.6937 F25.40
G1 X51.0132 Y1.6116 Z12.6937 F25.40
G2 X51.0207 Y1.3785 Z12.6937 I-18.8972 J-0.7216 F25.40
G2 X51.0271 Y1.0258 Z12.6937 I-9.6431 J-0.3533 F25.40
G1 X51.3316 Y1.3302 Z12.6937 F25.40
G3 X51.3602 Y0.9997 Z12.6937 I0.5484 J-0.1190 F25.40
G1 X51.0277 Y0.6672 Z12.6937 F25.40
G1 X51.0277 Y0.3079 Z12.6937 F25.40
G1 X51.4517 Y0.7320 Z12.6937 F25.40
G2 X52.1133 Y1.3935 Z12.6937 I0.9586 J-0.2971 F25.40
G2 X52.6852 Y1.6062 Z12.6937 I0.4530 J-0.3430 F25.40
G1 X52.5178 Y1.4388 Z12.6937 F25.40
G2 X52.8091 Y1.3709 Z12.6937 I-0.0262 J-0.7717 F25.40
G1 X52.9973 Y1.5591 Z12.6937 F25.40
G2 X53.2432 Y1.4458 Z12.6937 I-0.1018 J-0.5442 F25.40
G1 X53.0241 Y1.2267 Z12.6937 F25.40
G2 X53.1646 Y1.0080 Z12.6937 I-0.4362 J-0.4347 F25.40
G1 X53.4198 Y1.2632 Z12.6937 F25.40
G2 X53.5384 Y1.0225 Z12.6937 I-0.4401 J-0.3663 F25.40
G1 X53.2455 Y0.7296 Z12.6937 F25.40
G2 X53.2699 Y0.3949 Z12.6937 I-1.2461 J-0.2593 F25.40
G1 X53.5967 Y0.7217 Z12.6937 F25.40
G2 X53.6115 Y0.3773 Z12.6937 I-2.8542 J-0.2952 F25.40
G1 X53.2699 Y0.0357 Z12.6937 F25.40
G1 X53.2699 Y-0.3235 Z12.6937 F25.40
G1 X53.6115 Y0.0181 Z12.6937 F25.40
G1 X53.6115 Y-0.3412 Z12.6937 F25.40
G1 X53.2699 Y-0.6827 Z12.6937 F25.40
G1 X53.2699 Y-1.0420 Z12.6937 F25.40
G1 X53.6115 Y-0.7004 Z12.6937 F25.40
G1 X53.6115 Y-1.0596 Z12.6937 F25.40
G1 X53.2699 Y-1.4012 Z12.6937 F25.40
G1 X53.2699 Y-1.7604 Z12.6937 F25.40
G1 X53.6115 Y-1.4188 Z12.6937 F25.40
G1 X53.6115 Y-1.7780 Z12.6937 F25.40
G0 X53.6115 Y-1.7780 Z17.7800
G0 X51.0970 Y-1.7780 Z17.7800
G1 X51.0970 Y-1.7780 Z12.6937 F12.70
G1 X51.3649 Y-1.7780 Z12.6937 F25.40
G1 X51.3649 Y-1.5101 Z12.6937 F25.40
G1 X51.0970 Y-1.7780 Z12.6937 F25.40
G1 X51.0277 Y-1.7780 Z12.6937 F25.40
G1 X51.0277 Y-1.4881 Z12.6937 F25.40
G1 X51.3649 Y-1.1509 Z12.6937 F25.40
G1 X51.3649 Y-0.7917 Z12.6937 F25.40
G1 X51.0277 Y-1.1289 Z12.6937 F25.40
G1 X51.0277 Y-0.7697 Z12.6937 F25.40
G1 X51.3649 Y-0.4325 Z12.6937 F25.40
G1 X51.3649 Y-0.0733 Z12.6937 F25.40
G1 X51.0277 Y-0.4105 Z12.6937 F25.40
G1 X51.0277 Y-0.0513 Z12.6937 F25.40
G1 X51.3717 Y0.2927 Z12.6937 F25.40
G2 X51.4517 Y0.7320 Z12.6937 I1.2111 J0.0062 F25.40
G1 X51.0277 Y0.3079 Z12.6937 F25.40
G0 Z17.7800
G0 X55.3647 Y2.8728
G0 Z15.7480
G1 X55.3647 Y2.8728 Z12.6937 F12.70
G1 X55.1983 Y2.7064 Z12.6937 F25.40
G1 X55.0326 Y2.7064 Z12.6937 F25.40
G1 X55.0326 Y2.8728 Z12.6937 F25.40
G1 X55.3647 Y2.8728 Z12.6937 F25.40
G1 X55.7239 Y2.8728 Z12.6937 F25.40
G1 X55.5575 Y2.7064 Z12.6937 F25.40
G2 X55.8799 Y2.6697 Z12.6937 I0.0215 J-1.2437 F25.40
G1 X56.0430 Y2.8327 Z12.6937 F25.40
G2 X56.2863 Y2.7169 Z12.6937 I-0.1144 J-0.5539 F25.40
G1 X56.1055 Y2.5360 Z12.6937 F25.40
G2 X56.2408 Y2.3121 Z12.6937 I-0.3338 J-0.3544 F25.40
G1 X56.4627 Y2.5340 Z12.6937 F25.40
G2 X56.5727 Y2.2848 Z12.6937 I-0.3846 J-0.3186 F25.40
G1 X56.2887 Y2.0008 Z12.6937 F25.40
G2 X56.2960 Y1.6489 Z12.6937 I-1.6683 J-0.2106 F25.40
G1 X56.6135 Y1.9664 Z12.6937 F25.40
G1 X56.6135 Y1.6072 Z12.6937 F25.40
G1 X56.2960 Y1.2897 Z12.6937 F25.40
G1 X56.2960 Y0.9305 Z12.6937 F25.40
G1 X56.6135 Y1.2480 Z12.6937 F25.40
G1 X56.6135 Y0.8888 Z12.6937 F25.40
G1 X56.3167 Y0.5920 Z12.6937 F25.40
G3 X56.4252 Y0.3412 Z12.6937 I0.6684 J0.1403 F25.40
G1 X56.6493 Y0.5653 Z12.6937 F25.40
G3 X56.7676 Y0.3245 Z12.6937 I0.5391 J0.1154 F25.40
G1 X56.5979 Y0.1547 Z12.6937 F25.40
G3 X56.8316 Y0.0292 Z12.6937 I0.3627 J0.3951 F25.40
G1 X56.9439 Y0.1415 Z12.6937 F25.40
G3 X57.1802 Y0.0186 Z12.6937 I0.4898 J0.6531 F25.40
G1 X57.0470 Y-0.1146 Z12.6937 F25.40
G0 X57.0470 Y-0.1146 Z17.7800
G0 X57.2025 Y-0.3183 Z17.7800
G1 X57.2025 Y-0.3183 Z12.6937 F12.70
G2 X57.5179 Y-0.2544 Z12.6937 I0.3377 J-0.8555 F25.40
G1 X57.5179 Y-0.0529 Z12.6937 F25.40
G1 X57.4742 Y-0.0466 Z12.6937 F25.40
G1 X57.2025 Y-0.3183 Z12.6937 F25.40
G3 X56.6496 Y-0.8712 Z12.6937 I0.2138 J-0.7667 F25.40
G1 X56.2960 Y-1.2248 Z12.6937 F25.40
G2 X56.3358 Y-0.8258 Z12.6937 I0.8219 J0.1196 F25.40
G1 X56.8557 Y-0.3059 Z12.6937 F25.40
G3 X56.3358 Y-0.8258 Z12.6937 I0.2418 J-0.7618 F25.40
G0 X56.3358 Y-0.8258 Z17.7800
G0 X56.2960 Y-1.2248 Z17.7800
G1 X56.2960 Y-1.2248 Z12.6937 F12.70
G1 X56.6496 Y-0.8712 Z12.6937 F25.40
G3 X56.6135 Y-1.2665 Z12.6937 I0.8631 J-0.2779 F25.40
G1 X56.2960 Y-1.5840 Z12.6937 F25.40
G1 X56.2960 Y-1.9432 Z12.6937 F25.40
G1 X56.6135 Y-1.6257 Z12.6937 F25.40
G1 X56.6135 Y-1.9849 Z12.6937 F25.40
G1 X56.2884 Y-2.3101 Z12.6937 F25.40
G0 X56.2884 Y-2.3101 Z17.7800
G0 X56.3795 Y-2.9374 Z17.7800
G1 X56.3795 Y-2.9374 Z12.6937 F12.70
G3 X56.6091 Y-2.3485 Z12.6937 I-0.6174 J0.5800 F25.40
G1 X55.7792 Y-3.1785 Z12.6937 F25.40
G2 X55.4190 Y-3.1794 Z12.6937 I-0.1851 J1.9854 F25.40
G1 X55.5855 Y-3.0130 Z12.6937 F25.40
G1 X55.2262 Y-3.0130 Z12.6937 F25.40
G1 X55.0598 Y-3.1794 Z12.6937 F25.40
G1 X55.0326 Y-3.1794 Z12.6937 F25.40
G1 X55.0326 Y-3.0130 Z12.6937 F25.40
G1 X55.2262 Y-3.0130 Z12.6937 F25.40
G0 Z17.7800
G0 X42.0239 Y-2.4787
G0 Z15.7480
G1 X42.0239 Y-2.4787 Z12.6937 F12.70
G1 X42.0239 Y-2.4524 Z12.6937 F25.40
G1 X41.6909 Y-2.4524 Z12.6937 F25.40
G1 X41.6647 Y-2.4787 Z12.6937 F25.40
G1 X41.3054 Y-2.4787 Z12.6937 F25.40
G1 X41.3317 Y-2.4524 Z12.6937 F25.40
G1 X40.9725 Y-2.4524 Z12.6937 F25.40
G1 X40.9462 Y-2.4787 Z12.6937 F25.40
G1 X40.5870 Y-2.4787 Z12.6937 F25.40
G1 X40.6133 Y-2.4524 Z12.6937 F25.40
G1 X40.2541 Y-2.4524 Z12.6937 F25.40
G1 X40.2278 Y-2.4787 Z12.6937 F25.40
G1 X39.8686 Y-2.4787 Z12.6937 F25.40
G1 X39.8949 Y-2.4524 Z12.6937 F25.40
G1 X39.5357 Y-2.4524 Z12.6937 F25.40
G1 X39.5094 Y-2.4787 Z12.6937 F25.40
G1 X39.1502 Y-2.4787 Z12.6937 F25.40
G1 X39.1765 Y-2.4524 Z12.6937 F25.40
G1 X38.8172 Y-2.4524 Z12.6937 F25.40
G1 X38.7910 Y-2.4787 Z12.6937 F25.40
G1 X38.4318 Y-2.4787 Z12.6937 F25.40
G1 X38.4580 Y-2.4524 Z12.6937 F25.40
G1 X38.2095 Y-2.4524 Z12.6937 F25.40
G1 X38.2095 Y-2.4787 Z12.6937 F25.40
G1 X38.4318 Y-2.4787 Z12.6937 F25.40
G0 Z17.7800
G0 X13.5759 Y-2.4524
G0 Z15.7480
G1 X13.5759 Y-2.4524 Z12.6937 F12.70
G1 X13.2167 Y-2.4524 Z12.6937 F25.40
G1 X13.2429 Y-2.4787 Z12.6937 F25.40
G1 X12.8837 Y-2.4787 Z12.6937 F25.40
G1 X12.8574 Y-2.4524 Z12.6937 F25.40
G1 X12.4982 Y-2.4524 Z12.6937 F25.40
G1 X12.5245 Y-2.4787 Z12.6937 F25.40
G1 X12.1653 Y-2.4787 Z12.6937 F25.40
G1 X12.1390 Y-2.4524 Z12.6937 F25.40
G1 X11.7798 Y-2.4524 Z12.6937 F25.40
G1 X11.8061 Y-2.4787 Z12.6937 F25.40
G1 X11.4469 Y-2.4787 Z12.6937 F25.40
G1 X11.4206 Y-2.4524 Z12.6937 F25.40
G1 X11.0614 Y-2.4524 Z12.6937 F25.40
G1 X11.0877 Y-2.4787 Z12.6937 F25.40
G1 X10.7285 Y-2.4787 Z12.6937 F25.40
G1 X10.7022 Y-2.4524 Z12.6937 F25.40
G1 X10.3430 Y-2.4524 Z12.6937 F25.40
G1 X10.3692 Y-2.4787 Z12.6937 F25.40
G1 X10.0100 Y-2.4787 Z12.6937 F25.40
G1 X9.9838 Y-2.4524 Z12.6937 F25.40
G1 X9.7615 Y-2.4524 Z12.6937 F25.40
G1 X9.7615 Y-2.4787 Z12.6937 F25.40
G1 X10.0100 Y-2.4787 Z12.6937 F25.40
G0 Z17.7800
G0 X-2.6801 Y-2.4524
G0 Z15.7480
G1 X-2.6801 Y-2.4524 Z12.6937 F12.70
G1 X-3.0393 Y-2.4524 Z12.6937 F25.40
G1 X-3.0131 Y-2.4787 Z12.6937 F25.40
G1 X-3.3723 Y-2.4787 Z12.6937 F25.40
G1 X-3.3986 Y-2.4524 Z12.6937 F25.40
G1 X-3.7578 Y-2.4524 Z12.6937 F25.40
G1 X-3.7315 Y-2.4787 Z12.6937 F25.40
G1 X-4.0907 Y-2.4787 Z12.6937 F25.40
G1 X-4.1170 Y-2.4524 Z12.6937 F25.40
G1 X-4.4762 Y-2.4524 Z12.6937 F25.40
G1 X-4.4499 Y-2.4787 Z12.6937 F25.40
G1 X-4.8091 Y-2.4787 Z12.6937 F25.40
G1 X-4.8354 Y-2.4524 Z12.6937 F25.40
G1 X-5.1946 Y-2.4524 Z12.6937 F25.40
G1 X-5.1683 Y-2.4787 Z12.6937 F25.40
G1 X-5.5275 Y-2.4787 Z12.6937 F25.40
G1 X-5.5538 Y-2.4524 Z12.6937 F25.40
G1 X-5.9130 Y-2.4524 Z12.6937 F25.40
G1 X-5.8868 Y-2.4787 Z12.6937 F25.40
G1 X-6.2460 Y-2.4787 Z12.6937 F25.40
G1 X-6.2722 Y-2.4524 Z12.6937 F25.40
G1 X-6.4945 Y-2.4524 Z12.6937 F25.40
G1 X-6.4945 Y-2.4787 Z12.6937 F25.40
G1 X-6.2460 Y-2.4787 Z12.6937 F25.40
G0 Z17.7800
G0 X-18.9361 Y-2.4787
G0 Z15.7480
G1 X-18.9361 Y-2.4787 Z12.6937 F12.70
G1 X-18.9361 Y-2.4524 Z12.6937 F25.40
G1 X-19.2691 Y-2.4524 Z12.6937 F25.40
G1 X-19.2953 Y-2.4787 Z12.6937 F25.40
G1 X-19.6546 Y-2.4787 Z12.6937 F25.40
G1 X-19.6283 Y-2.4524 Z12.6937 F25.40
G1 X-19.9875 Y-2.4524 Z12.6937 F25.40
G1 X-20.0138 Y-2.4787 Z12.6937 F25.40
G1 X-20.3730 Y-2.4787 Z12.6937 F25.40
G1 X-20.3467 Y-2.4524 Z12.6937 F25.40
G1 X-20.7059 Y-2.4524 Z12.6937 F25.40
G1 X-20.7322 Y-2.4787 Z12.6937 F25.40
G1 X-21.0914 Y-2.4787 Z12.6937 F25.40
G1 X-21.0651 Y-2.4524 Z12.6937 F25.40
G1 X-21.4243 Y-2.4524 Z12.6937 F25.40
G1 X-21.4506 Y-2.4787 Z12.6937 F25.40
G1 X-21.8098 Y-2.4787 Z12.6937 F25.40
G1 X-21.7835 Y-2.4524 Z12.6937 F25.40
G1 X-22.1428 Y-2.4524 Z12.6937 F25.40
G1 X-22.1690 Y-2.4787 Z12.6937 F25.40
G1 X-22.5282 Y-2.4787 Z12.6937 F25.40
G1 X-22.5020 Y-2.4524 Z12.6937 F25.40
G1 X-22.7505 Y-2.4524 Z12.6937 F25.40
G1 X-22.7505 Y-2.4787 Z12.6937 F25.40
G1 X-22.5282 Y-2.4787 Z12.6937 F25.40
G0 Z17.7800
(finish operation: Pocket_Shape)
(begin postamble)
M5
G17 G90
; M2
